; generated by PrusaSlicer 2.4.2 on 2022-10-09 at 13:43:36 UTC


;
;

;
;
; 

; external perimeters extrusion width = 0.45mm
; perimeters extrusion width = 0.45mm
; infill extrusion width = 0.45mm
; solid infill extrusion width = 0.45mm
; top infill extrusion width = 0.40mm
; first layer extrusion width = 0.42mm

M73 P0 R117
M201 X2500 Y2500 Z400 E5000 ; sets maximum accelerations, mm/sec^2
M203 X180 Y180 Z12 E80 ; sets maximum feedrates, mm / sec
M204 P1250 R1250 T2500 ; sets acceleration (P, T) and retract acceleration (R), mm/sec^2
M205 X8.00 Y8.00 Z2.00 E10.00 ; sets the jerk limits, mm/sec
M205 S0 T0 ; sets the minimum extruding and travel feed rate, mm/sec
M107
;TYPE:Custom
M862.3 P "MINI" ; printer model check
G90 ; use absolute coordinates
M83 ; extruder relative mode
M104 S170 ; set extruder temp for bed leveling
M140 S60 ; set bed temp
M109 R170 ; wait for bed leveling temp
M190 S60 ; wait for bed temp
M204 T1250 ; set travel acceleration
G28 ; home all without mesh bed level
G29 ; mesh bed leveling 
M204 T2500 ; restore travel acceleration
M104 S215 ; set extruder temp
G92 E0
G1 Y-2 X179 F2400
G1 Z3 F720
M109 S215 ; wait for extruder temp

; intro line
M73 P0 R116
G1 X170 F1000
G1 Z0.2 F720
G1 X110 E8 F900
G1 X40 E10 F700
G92 E0

M221 S95 ; set flow
G21 ; set units to millimeters
G90 ; use absolute coordinates
M83 ; use relative distances for extrusion
M900 K0.2 ; Filament gcode LA 1.5
; ; Filament gcode LA 1.0
M107
;LAYER_CHANGE
;Z:0.2
;HEIGHT:0.2
;BEFORE_LAYER_CHANGE
G92 E0.0
;0.2


G1 E-3.2 F4200
G1 Z.2 F720
;AFTER_LAYER_CHANGE
;0.2
G1 Z.4
G1 X16.076 Y38.25 F9000
G1 Z.2 F720
G1 E3.2 F2400
M204 P800
;TYPE:Skirt/Brim
;WIDTH:0.42
G1 F1200
G1 X18.284 Y37.542 E.07272
G1 X164.581 Y16.982 E4.63209
G1 X165.612 Y16.91 E.03243
G1 X166.924 Y17.286 E.04278
G1 X167.813 Y18.322 E.04278
G1 X168.017 Y19.287 E.03094
G1 X168.017 Y160.713 E4.43431
G1 X167.626 Y162.02 E.04278
G1 X166.58 Y162.896 E.04278
G1 X165.64 Y163.09 E.03008
G1 X35.422 Y163.09 E4.08291
G1 X33.378 Y162.927 E.06427
G1 X32.504 Y162.679 E.02848
G1 X30.722 Y161.778 E.06261
G1 X29.982 Y161.194 E.02956
G1 X28.691 Y159.671 E.06261
G1 X28.246 Y158.879 E.02848
G1 X27.569 Y156.707 E.07134
G1 X12.006 Y45.874 E3.50917
G1 X12.077 Y43.556 E.07272
G1 X12.209 Y42.883 E.0215
G1 X12.544 Y41.932 E.03163
G1 X13.282 Y40.611 E.04744
G1 X14.278 Y39.466 E.04759
G1 X15.465 Y38.562 E.04677
G1 X16.022 Y38.277 E.01962
M204 P1000
; printing object shockboard_test_half.stl id:0 copy 0
G1 E-2.24 F4200
;WIPE_START
G1 F7200
G1 X17.587 Y37.769 E-.912
;WIPE_END
G1 E-.048 F4200
G1 Z.4 F720
G1 X83.725 Y82.835 F9000
G1 Z.2 F720
G1 E3.2 F2400
M204 P800
;TYPE:Perimeter
G1 F1200
G1 X99.148 Y80.668 E.48832
G1 X101.315 Y96.091 E.48832
G1 X85.893 Y98.258 E.48832
G1 X83.734 Y82.895 E.48644
M204 P1000
G1 X84.151 Y83.156 F9000
M204 P800
;TYPE:External perimeter
G1 F1200
G1 X98.827 Y81.094 E.46467
G1 X100.89 Y95.77 E.46467
G1 X86.214 Y97.832 E.46467
G1 X84.16 Y83.216 E.46279
M204 P1000
G1 X83.995 Y82.788 F9000
G1 E-2.24 F4200
;WIPE_START
G1 F7200
G1 X85.788 Y82.98 E-.912
;WIPE_END
G1 E-.048 F4200
G1 Z.4 F720
G1 X86.37 Y101.651 F9000
G1 Z.2 F720
G1 E3.2 F2400
M204 P800
;TYPE:Perimeter
G1 F1200
G1 X101.792 Y99.483 E.48832
G1 X103.96 Y114.906 E.48832
G1 X88.537 Y117.073 E.48832
G1 X86.378 Y101.71 E.48644
M204 P1000
G1 X86.795 Y101.971 F9000
M204 P800
;TYPE:External perimeter
G1 F1200
G1 X101.471 Y99.909 E.46467
G1 X103.534 Y114.585 E.46467
G1 X88.858 Y116.647 E.46467
G1 X86.804 Y102.031 E.46279
M204 P1000
G1 X86.639 Y101.603 F9000
G1 E-2.24 F4200
;WIPE_START
G1 F7200
G1 X88.433 Y101.795 E-.912
;WIPE_END
G1 E-.048 F4200
G1 Z.4 F720
G1 X89.014 Y120.466 F9000
G1 Z.2 F720
G1 E3.2 F2400
M204 P800
;TYPE:Perimeter
G1 F1200
G1 X104.436 Y118.298 E.48832
G1 X106.604 Y133.721 E.48832
G1 X91.181 Y135.888 E.48832
G1 X89.022 Y120.525 E.48644
M204 P1000
G1 X89.44 Y120.787 F9000
M204 P800
;TYPE:External perimeter
G1 F1200
G1 X104.116 Y118.724 E.46467
G1 X106.178 Y133.4 E.46467
G1 X91.502 Y135.462 E.46467
M73 P0 R115
G1 X89.448 Y120.846 E.46279
M204 P1000
G1 X89.283 Y120.418 F9000
G1 E-2.24 F4200
;WIPE_START
G1 F7200
G1 X91.077 Y120.61 E-.912
;WIPE_END
G1 E-.048 F4200
G1 Z.4 F720
G1 X91.658 Y139.281 F9000
G1 Z.2 F720
G1 E3.2 F2400
M204 P800
;TYPE:Perimeter
G1 F1200
G1 X107.081 Y137.113 E.48832
G1 X109.248 Y152.536 E.48832
G1 X93.826 Y154.703 E.48832
G1 X91.667 Y139.34 E.48644
M204 P1000
G1 X92.084 Y139.602 F9000
M204 P800
;TYPE:External perimeter
G1 F1200
G1 X106.76 Y137.539 E.46467
G1 X108.822 Y152.215 E.46467
G1 X94.147 Y154.277 E.46467
G1 X92.092 Y139.661 E.46279
M204 P1000
M73 P1 R115
G1 X91.928 Y139.233 F9000
G1 E-2.24 F4200
;WIPE_START
G1 F7200
G1 X93.721 Y139.425 E-.912
;WIPE_END
G1 E-.048 F4200
G1 Z.4 F720
G1 X87.848 Y136.787 F9000
G1 Z.2 F720
G1 E3.2 F2400
M204 P800
;TYPE:Perimeter
G1 F1200
G1 X90.016 Y152.209 E.48832
G1 X74.593 Y154.377 E.48832
G1 X72.426 Y138.954 E.48832
G1 X87.789 Y136.795 E.48644
M204 P1000
G1 X87.527 Y137.213 F9000
M204 P800
;TYPE:External perimeter
G1 F1200
G1 X89.59 Y151.888 E.46467
G1 X74.914 Y153.951 E.46467
G1 X72.851 Y139.275 E.46467
G1 X87.468 Y137.221 E.46279
M204 P1000
G1 X87.895 Y137.056 F9000
G1 E-2.24 F4200
;WIPE_START
G1 F7200
G1 X87.703 Y138.85 E-.912
;WIPE_END
G1 E-.048 F4200
G1 Z.4 F720
G1 X87.371 Y133.394 F9000
G1 Z.2 F720
G1 E3.2 F2400
M204 P800
;TYPE:Perimeter
G1 F1200
G1 X71.949 Y135.562 E.48832
G1 X69.781 Y120.139 E.48832
G1 X85.204 Y117.972 E.48832
G1 X87.363 Y133.335 E.48644
M204 P1000
G1 X86.945 Y133.073 F9000
M204 P800
;TYPE:External perimeter
G1 F1200
G1 X72.27 Y135.136 E.46467
G1 X70.207 Y120.46 E.46467
G1 X84.883 Y118.398 E.46467
G1 X86.937 Y133.014 E.46279
M204 P1000
G1 X87.102 Y133.441 F9000
G1 E-2.24 F4200
;WIPE_START
G1 F7200
G1 X85.308 Y133.249 E-.912
;WIPE_END
G1 E-.048 F4200
G1 Z.4 F720
G1 X84.727 Y114.579 F9000
G1 Z.2 F720
G1 E3.2 F2400
M204 P800
;TYPE:Perimeter
G1 F1200
G1 X69.304 Y116.747 E.48832
G1 X67.137 Y101.324 E.48832
G1 X82.56 Y99.157 E.48832
G1 X84.719 Y114.52 E.48644
M204 P1000
G1 X84.301 Y114.258 F9000
M204 P800
;TYPE:External perimeter
G1 F1200
G1 X69.625 Y116.321 E.46467
G1 X67.563 Y101.645 E.46467
G1 X82.239 Y99.582 E.46467
G1 X84.293 Y114.199 E.46279
M204 P1000
G1 X84.457 Y114.626 F9000
G1 E-2.24 F4200
;WIPE_START
G1 F7200
G1 X82.664 Y114.434 E-.912
;WIPE_END
G1 E-.048 F4200
G1 Z.4 F720
G1 X82.083 Y95.764 F9000
G1 Z.2 F720
G1 E3.2 F2400
M204 P800
;TYPE:Perimeter
G1 F1200
G1 X66.66 Y97.932 E.48832
G1 X64.493 Y82.509 E.48832
G1 X79.915 Y80.341 E.48832
G1 X82.074 Y95.705 E.48644
M204 P1000
G1 X81.657 Y95.443 F9000
M204 P800
;TYPE:External perimeter
G1 F1200
G1 X66.981 Y97.506 E.46467
G1 X64.919 Y82.83 E.46467
G1 X79.594 Y80.767 E.46467
G1 X81.649 Y95.384 E.46279
M204 P1000
G1 X81.813 Y95.811 F9000
G1 E-2.24 F4200
;WIPE_START
G1 F7200
G1 X80.02 Y95.619 E-.912
;WIPE_END
G1 E-.048 F4200
G1 Z.4 F720
G1 X86.147 Y56.24 F9000
G1 Z.2 F720
G1 E3.2 F2400
M204 P800
;TYPE:Perimeter
G1 F1200
G1 X88.314 Y71.662 E.48832
G1 X72.892 Y73.83 E.48832
G1 X70.724 Y58.407 E.48832
G1 X86.087 Y56.248 E.48644
M204 P1000
G1 X85.826 Y56.666 F9000
M204 P800
;TYPE:External perimeter
G1 F1200
G1 X87.888 Y71.341 E.46467
G1 X73.212 Y73.404 E.46467
G1 X71.15 Y58.728 E.46467
G1 X85.766 Y56.674 E.46279
M204 P1000
G1 X86.194 Y56.509 F9000
G1 E-2.24 F4200
;WIPE_START
G1 F7200
G1 X86.002 Y58.303 E-.912
;WIPE_END
G1 E-.048 F4200
G1 Z.4 F720
G1 X99.021 Y54.43 F9000
G1 Z.2 F720
G1 E3.2 F2400
M204 P800
;TYPE:Perimeter
G1 F1200
G1 X114.444 Y52.263 E.48832
G1 X116.611 Y67.685 E.48832
G1 X101.188 Y69.853 E.48832
G1 X99.029 Y54.49 E.48644
M204 P1000
G1 X99.447 Y54.751 F9000
M204 P800
;TYPE:External perimeter
G1 F1200
G1 X114.123 Y52.689 E.46467
G1 X116.185 Y67.364 E.46467
G1 X101.509 Y69.427 E.46467
G1 X99.455 Y54.811 E.46279
M204 P1000
G1 X99.291 Y54.383 F9000
G1 E-2.24 F4200
;WIPE_START
G1 F7200
G1 X101.084 Y54.575 E-.912
;WIPE_END
G1 E-.048 F4200
G1 Z.4 F720
G1 X119.028 Y50.854 F9000
G1 Z.2 F720
G1 E3.2 F2400
M204 P800
;TYPE:Perimeter
G1 F1200
G1 X132.163 Y42.486 E.48832
G1 X140.531 Y55.621 E.48832
G1 X127.396 Y63.989 E.48832
G1 X119.06 Y50.905 E.48644
M204 P1000
G1 X119.548 Y50.97 F9000
M204 P800
;TYPE:External perimeter
G1 F1200
G1 X132.047 Y43.007 E.46467
G1 X140.01 Y55.506 E.46467
G1 X127.511 Y63.469 E.46467
G1 X119.58 Y51.02 E.46279
M204 P1000
G1 X119.253 Y50.699 F9000
G1 E-2.24 F4200
;WIPE_START
G1 F7200
G1 X120.965 Y50.13 E-.912
;WIPE_END
G1 E-.048 F4200
G1 Z.4 F720
G1 X136.171 Y39.291 F9000
G1 Z.2 F720
G1 E3.2 F2400
M204 P800
;TYPE:Perimeter
G1 F1200
G1 X146.491 Y27.627 E.48832
G1 X158.156 Y37.947 E.48832
G1 X147.836 Y49.611 E.48832
G1 X136.216 Y39.331 E.48644
M204 P1000
G1 X136.704 Y39.259 F9000
M204 P800
;TYPE:External perimeter
G1 F1200
G1 X146.524 Y28.159 E.46467
G1 X157.623 Y37.979 E.46467
G1 X147.803 Y49.079 E.46467
M73 P1 R114
G1 X136.749 Y39.299 E.46279
M204 P1000
G1 X136.346 Y39.08 F9000
G1 E-2.24 F4200
;WIPE_START
G1 F7200
G1 X137.834 Y38.062 E-.912
;WIPE_END
G1 E-.048 F4200
G1 Z.4 F720
G1 X143.806 Y125.388 F9000
G1 Z.2 F720
G1 E3.2 F2400
M204 P800
;TYPE:Perimeter
G1 F1200
G1 X145.974 Y140.81 E.48832
G1 X130.551 Y142.978 E.48832
G1 X128.384 Y127.555 E.48832
G1 X143.747 Y125.396 E.48644
M204 P1000
G1 X143.485 Y125.814 F9000
M204 P800
;TYPE:External perimeter
G1 F1200
G1 X145.548 Y140.49 E.46467
G1 X130.872 Y142.552 E.46467
G1 X128.81 Y127.876 E.46467
G1 X143.426 Y125.822 E.46279
M204 P1000
G1 X143.854 Y125.658 F9000
G1 E-2.24 F4200
;WIPE_START
G1 F7200
G1 X143.662 Y127.451 E-.912
;WIPE_END
G1 E-.048 F4200
G1 Z.4 F720
G1 X143.33 Y121.995 F9000
G1 Z.2 F720
G1 E3.2 F2400
M204 P800
;TYPE:Perimeter
G1 F1200
G1 X127.907 Y124.163 E.48832
G1 X125.739 Y108.74 E.48832
G1 X141.162 Y106.573 E.48832
G1 X143.321 Y121.936 E.48644
M204 P1000
G1 X142.904 Y121.674 F9000
M204 P800
;TYPE:External perimeter
G1 F1200
G1 X128.228 Y123.737 E.46467
G1 X126.165 Y109.061 E.46467
G1 X140.841 Y106.999 E.46467
G1 X142.895 Y121.615 E.46279
M204 P1000
G1 X143.06 Y122.043 F9000
G1 E-2.24 F4200
;WIPE_START
G1 F7200
G1 X141.267 Y121.851 E-.912
;WIPE_END
G1 E-.048 F4200
G1 Z.4 F720
G1 X140.685 Y103.18 F9000
G1 Z.2 F720
G1 E3.2 F2400
M204 P800
;TYPE:Perimeter
G1 F1200
G1 X125.263 Y105.348 E.48832
G1 X123.095 Y89.925 E.48832
G1 X138.518 Y87.758 E.48832
G1 X140.677 Y103.121 E.48644
M204 P1000
M73 P2 R114
G1 X140.259 Y102.859 F9000
M204 P800
;TYPE:External perimeter
G1 F1200
G1 X125.584 Y104.922 E.46467
G1 X123.521 Y90.246 E.46467
G1 X138.197 Y88.184 E.46467
G1 X140.251 Y102.8 E.46279
M204 P1000
G1 X140.416 Y103.228 F9000
G1 E-2.24 F4200
;WIPE_START
G1 F7200
G1 X138.622 Y103.036 E-.912
;WIPE_END
G1 E-.048 F4200
G1 Z.4 F720
G1 X138.041 Y84.365 F9000
G1 Z.2 F720
G1 E3.2 F2400
M204 P800
;TYPE:Perimeter
G1 F1200
G1 X122.618 Y86.533 E.48832
G1 X120.451 Y71.11 E.48832
G1 X135.873 Y68.943 E.48832
G1 X138.033 Y84.306 E.48644
M204 P1000
G1 X137.615 Y84.044 F9000
M204 P800
;TYPE:External perimeter
G1 F1200
G1 X122.939 Y86.107 E.46467
G1 X120.877 Y71.431 E.46467
G1 X135.553 Y69.369 E.46467
G1 X137.607 Y83.985 E.46279
M204 P1000
G1 X137.771 Y84.412 F9000
G1 E-2.24 F4200
;WIPE_START
G1 F7200
G1 X135.978 Y84.221 E-.912
;WIPE_END
G1 E-.048 F4200
G1 Z.4 F720
G1 X117.267 Y73.072 F9000
G1 Z.2 F720
G1 E3.2 F2400
M204 P800
;TYPE:Perimeter
G1 F1200
G1 X119.435 Y88.495 E.48832
G1 X104.012 Y90.662 E.48832
G1 X101.845 Y75.24 E.48832
G1 X117.208 Y73.081 E.48644
M204 P1000
G1 X116.946 Y73.498 F9000
M204 P800
;TYPE:External perimeter
G1 F1200
G1 X119.009 Y88.174 E.46467
G1 X104.333 Y90.237 E.46467
G1 X102.27 Y75.561 E.46467
G1 X116.887 Y73.507 E.46279
M204 P1000
G1 X117.314 Y73.342 F9000
G1 E-2.24 F4200
;WIPE_START
G1 F7200
G1 X117.122 Y75.135 E-.912
;WIPE_END
G1 E-.048 F4200
G1 Z.4 F720
G1 X119.911 Y91.887 F9000
G1 Z.2 F720
G1 E3.2 F2400
M204 P800
;TYPE:Perimeter
G1 F1200
G1 X122.079 Y107.31 E.48832
G1 X106.656 Y109.478 E.48832
G1 X104.489 Y94.055 E.48832
G1 X119.852 Y91.896 E.48644
M204 P1000
G1 X119.59 Y92.313 F9000
M204 P800
;TYPE:External perimeter
G1 F1200
G1 X121.653 Y106.989 E.46467
G1 X106.977 Y109.052 E.46467
G1 X104.915 Y94.376 E.46467
G1 X119.531 Y92.322 E.46279
M204 P1000
G1 X119.959 Y92.157 F9000
G1 E-2.24 F4200
;WIPE_START
G1 F7200
G1 X119.767 Y93.95 E-.912
;WIPE_END
G1 E-.048 F4200
G1 Z.4 F720
G1 X122.556 Y110.703 F9000
G1 Z.2 F720
G1 E3.2 F2400
M204 P800
;TYPE:Perimeter
G1 F1200
G1 X124.723 Y126.125 E.48832
G1 X109.301 Y128.293 E.48832
G1 X107.133 Y112.87 E.48832
G1 X122.496 Y110.711 E.48644
M204 P1000
G1 X122.235 Y111.128 F9000
M204 P800
;TYPE:External perimeter
G1 F1200
G1 X124.297 Y125.804 E.46467
G1 X109.622 Y127.867 E.46467
G1 X107.559 Y113.191 E.46467
G1 X122.175 Y111.137 E.46279
M204 P1000
G1 X122.603 Y110.972 F9000
G1 E-2.24 F4200
;WIPE_START
G1 F7200
G1 X122.411 Y112.766 E-.912
;WIPE_END
G1 E-.048 F4200
G1 Z.4 F720
G1 X125.2 Y129.518 F9000
G1 Z.2 F720
G1 E3.2 F2400
M204 P800
;TYPE:Perimeter
G1 F1200
G1 X127.368 Y144.94 E.48832
G1 X111.945 Y147.108 E.48832
G1 X109.777 Y131.685 E.48832
G1 X125.141 Y129.526 E.48644
M204 P1000
G1 X124.879 Y129.943 F9000
M204 P800
;TYPE:External perimeter
G1 F1200
G1 X126.942 Y144.619 E.46467
G1 X112.266 Y146.682 E.46467
G1 X110.203 Y132.006 E.46467
G1 X124.82 Y129.952 E.46279
M204 P1000
G1 X125.247 Y129.787 F9000
G1 E-2.24 F4200
;WIPE_START
G1 F7200
G1 X125.055 Y131.581 E-.912
;WIPE_END
G1 E-.048 F4200
G1 Z.4 F720
G1 X48.757 Y131.677 F9000
G1 Z.2 F720
G1 E3.2 F2400
M204 P800
;TYPE:Perimeter
G1 F1200
G1 X50.924 Y147.1 E.48832
G1 X35.502 Y149.268 E.48832
G1 X33.334 Y133.845 E.48832
G1 X48.697 Y131.686 E.48644
M204 P1000
G1 X48.436 Y132.103 F9000
M204 P800
;TYPE:External perimeter
G1 F1200
G1 X50.498 Y146.779 E.46467
G1 X35.822 Y148.842 E.46467
M73 P2 R113
G1 X33.76 Y134.166 E.46467
G1 X48.376 Y132.112 E.46279
M204 P1000
G1 X48.804 Y131.947 F9000
G1 E-2.24 F4200
;WIPE_START
G1 F7200
G1 X48.612 Y133.74 E-.912
;WIPE_END
G1 E-.048 F4200
G1 Z.4 F720
G1 X52.149 Y131.201 F9000
G1 Z.2 F720
G1 E3.2 F2400
M204 P800
;TYPE:Perimeter
G1 F1200
G1 X67.572 Y129.033 E.48832
G1 X69.739 Y144.456 E.48832
G1 X54.317 Y146.623 E.48832
G1 X52.158 Y131.26 E.48644
M204 P1000
G1 X52.575 Y131.522 F9000
M204 P800
;TYPE:External perimeter
G1 F1200
G1 X67.251 Y129.459 E.46467
G1 X69.313 Y144.135 E.46467
G1 X54.638 Y146.197 E.46467
G1 X52.583 Y131.581 E.46279
M204 P1000
G1 X52.419 Y131.153 F9000
G1 E-2.24 F4200
;WIPE_START
G1 F7200
G1 X54.212 Y131.345 E-.912
;WIPE_END
G1 E-.048 F4200
G1 Z.4 F720
G1 X51.672 Y127.808 F9000
G1 Z.2 F720
G1 E3.2 F2400
M204 P800
;TYPE:Perimeter
G1 F1200
G1 X49.505 Y112.386 E.48832
G1 X64.927 Y110.218 E.48832
G1 X67.095 Y125.641 E.48832
G1 X51.732 Y127.8 E.48644
M204 P1000
G1 X51.993 Y127.382 F9000
M204 P800
;TYPE:External perimeter
G1 F1200
G1 X49.931 Y112.707 E.46467
G1 X64.607 Y110.644 E.46467
G1 X66.669 Y125.32 E.46467
G1 X52.053 Y127.374 E.46279
M204 P1000
G1 X51.625 Y127.539 F9000
G1 E-2.24 F4200
;WIPE_START
G1 F7200
G1 X51.817 Y125.745 E-.912
;WIPE_END
G1 E-.048 F4200
G1 Z.4 F720
G1 X49.028 Y108.993 F9000
G1 Z.2 F720
G1 E3.2 F2400
M204 P800
;TYPE:Perimeter
G1 F1200
G1 X46.861 Y93.571 E.48832
G1 X62.283 Y91.403 E.48832
G1 X64.451 Y106.826 E.48832
G1 X49.087 Y108.985 E.48644
M204 P1000
G1 X49.349 Y108.567 F9000
M204 P800
;TYPE:External perimeter
G1 F1200
G1 X47.286 Y93.891 E.46467
G1 X61.962 Y91.829 E.46467
G1 X64.025 Y106.505 E.46467
G1 X49.408 Y108.559 E.46279
M204 P1000
G1 X48.981 Y108.723 F9000
G1 E-2.24 F4200
;WIPE_START
G1 F7200
G1 X49.173 Y106.93 E-.912
;WIPE_END
G1 E-.048 F4200
G1 Z.4 F720
G1 X46.384 Y90.178 F9000
G1 Z.2 F720
G1 E3.2 F2400
M204 P800
;TYPE:Perimeter
G1 F1200
G1 X44.216 Y74.755 E.48832
G1 X59.639 Y72.588 E.48832
G1 X61.806 Y88.01 E.48832
G1 X46.443 Y90.17 E.48644
M204 P1000
G1 X46.705 Y89.752 F9000
M204 P800
;TYPE:External perimeter
G1 F1200
G1 X44.642 Y75.076 E.46467
G1 X59.318 Y73.014 E.46467
G1 X61.38 Y87.69 E.46467
G1 X46.764 Y89.744 E.46279
M204 P1000
M73 P3 R113
G1 X46.337 Y89.908 F9000
G1 E-2.24 F4200
;WIPE_START
G1 F7200
G1 X46.529 Y88.115 E-.912
;WIPE_END
G1 E-.048 F4200
G1 Z.4 F720
G1 X42.991 Y90.655 F9000
G1 Z.2 F720
G1 E3.2 F2400
M204 P800
;TYPE:Perimeter
G1 F1200
G1 X27.569 Y92.822 E.48832
G1 X25.401 Y77.4 E.48832
