; generated by PrusaSlicer 2.7.4 on 2024-05-12 at 08:27:41 UTC


;
;

;
;

;
;

;
;
; 

; external perimeters extrusion width = 0.45mm
; perimeters extrusion width = 0.45mm
; infill extrusion width = 0.45mm
; solid infill extrusion width = 0.45mm
; top infill extrusion width = 0.40mm
; first layer extrusion width = 0.42mm

M73 P0 R241
M73 Q0 S241
M201 X2500 Y2500 Z400 E5000 ; sets maximum accelerations, mm/sec^2
M203 X180 Y180 Z12 E80 ; sets maximum feedrates, mm / sec
M204 P2000 R1250 T2500 ; sets acceleration (P, T) and retract acceleration (R), mm/sec^2
M205 X8.00 Y8.00 Z2.00 E10.00 ; sets the jerk limits, mm/sec
M205 S0 T0 ; sets the minimum extruding and travel feed rate, mm/sec

M486 S0
M486 Acase_hipro_mx_bottom.stl
M486 S-1

;TYPE:Custom
M862.3 P "MINI" ; printer model check
G90 ; use absolute coordinates
M83 ; extruder relative mode
M104 S170 ; set extruder temp for bed leveling
M140 S60 ; set bed temp
M109 R170 ; wait for bed leveling temp
M190 S60 ; wait for bed temp
M204 T1250 ; set travel acceleration
G28 ; home all without mesh bed level
G29 ; mesh bed leveling 
M204 T2500 ; restore travel acceleration
M104 S215 ; set extruder temp
G92 E0
G1 Y-2 X179 F2400
G1 Z3 F720
M109 S215 ; wait for extruder temp

; intro line
G1 X170 F1000
G1 Z0.2 F720
G1 X110 E8 F900
G1 X40 E10 F700
G92 E0

M221 S95 ; set flow
G21 ; set units to millimeters
G90 ; use absolute coordinates
M83 ; use relative distances for extrusion

M900 K0.2 ; Filament gcode LA 1.5
; ; Filament gcode LA 1.0




M107
;LAYER_CHANGE
;Z:0.2
;HEIGHT:0.2
G1 E-3.2 F4200
G1 Z.4 F720
G1 X15.342 Y18.841 F9000
G1 Z.2 F720
G1 E3.2 F2400
M204 P600
;TYPE:Skirt/Brim
;WIDTH:0.42
G1 F1200
G1 X16.282 Y18.647 E.03009
G1 X84.954 Y18.647 E2.15316
G3 X92.2 Y20.797 I-.19 J13.924 E.23999
M73 P0 R240
M73 Q0 S240
G1 X146.672 Y59.109 E2.08807
G3 X148.886 Y61.381 I-10.521 J12.47 E.09962
G1 X163.426 Y80.674 E.75747
G3 X166.027 Y90.042 I-10.976 J8.093 E.3117
G1 X158.192 Y145.702 E1.76239
G3 X146.959 Y156.325 I-13.175 J-2.681 E.51645
G1 X111.298 Y160.978 E1.1276
G1 X90.639 Y161.327 E.64784
G1 X67.062 Y158.028 E.74644
G1 X15.756 Y146.401 E1.64945
G1 X14.568 Y145.73 E.04278
G1 X13.905 Y144.083 E.05567
G1 X13.905 Y21.024 E3.85843
G1 X14.296 Y19.717 E.04277
G1 X15.296 Y18.88 E.04089
M204 P1000
G1 E-2.24 F4200
;WIPE_START
G1 F7200
G1 X15.342 Y18.841 E-.03342
G1 X16.282 Y18.647 E-.53189
G1 X16.994 Y18.647 E-.39469
;WIPE_END
G1 Z.4 F720
M486 S0
G1 X17.069 Y143.296 F9000
G1 Z.2 F720
G1 E3.2 F2400
M204 P600
;TYPE:Perimeter
;WIDTH:0.419999
G1 F1200
G1 X17.069 Y21.811 E3.80907
G1 X84.92 Y21.812 E2.12742
G3 X90.805 Y23.673 I-.029 J10.325 E.19653
G1 X144.135 Y61.157 E2.04384
G3 X146.369 Y63.298 I-6.195 J8.702 E.09736
G1 X160.793 Y82.437 E.75143
G3 X162.927 Y88.762 I-8.236 J6.302 E.21309
G3 X162.845 Y90.016 I-10.308 J-.049 E.03943
G1 X155.141 Y144.799 E1.73458
G3 X146.387 Y153.209 I-10.088 J-1.739 E.40742
G1 X110.979 Y157.83 E1.11961
G1 X110.2 Y157.872 E.02446
G1 X91.559 Y158.188 E.58456
G3 X90.146 Y158.101 I.124 J-13.522 E.04441
G1 X68.194 Y155.016 E.69505
G3 X66.599 Y154.644 I1.711 J-10.929 E.0514
G1 X31.749 Y143.517 E1.14704
G1 X30.968 Y143.296 E.02545
G1 X17.129 Y143.296 E.43391
M204 P1000
G1 X16.692 Y143.673 F9000
M204 P600
;TYPE:External perimeter
G1 F1200
G1 X16.692 Y21.434 E3.83271
G1 X84.927 Y21.434 E2.13946
G3 X91.016 Y23.36 I-.035 J10.7 E.20334
G1 X144.357 Y60.852 E2.04427
G3 X146.665 Y63.063 I-6.412 J9.001 E.10057
M73 P0 R239
M73 Q0 S239
G1 X161.094 Y82.211 E.75175
G3 X163.304 Y88.764 I-8.539 J6.529 E.22076
G3 X163.219 Y90.062 I-10.664 J-.049 E.04081
G1 X155.513 Y144.864 E1.73518
G3 X146.444 Y153.582 I-10.46 J-1.804 E.42217
G1 X111.013 Y158.205 E1.12033
G1 X110.214 Y158.249 E.02509
G1 X91.559 Y158.566 E.585
G3 X90.104 Y158.476 I.123 J-13.889 E.04573
G1 X68.134 Y155.389 E.69562
G3 X66.489 Y155.005 I1.769 J-11.295 E.05301
G1 X30.968 Y143.673 E1.16904
G1 X16.752 Y143.673 E.44573
M204 P1000
G1 E-2.24 F4200
;WIPE_START
G1 F7200
G1 X16.692 Y143.673 E-.03325
G1 X16.692 Y142.001 E-.92675
;WIPE_END
G1 Z.4 F720
G1 X123.722 Y82.371 F9000
G1 Z.2 F720
G1 E3.2 F2400
M204 P600
;TYPE:Perimeter
G1 F1200
G1 X123.966 Y83.131 E.02503
G3 X123.792 Y85.336 I-4.202 J.777 E.07015
G1 X123.405 Y86.099 E.02682
G3 X121.735 Y87.548 I-3.54 J-2.393 E.07012
G1 X120.923 Y87.821 E.02686
G1 X120.177 Y87.914 E.02357
G3 X118.044 Y87.367 I-.038 J-4.285 E.06983
G1 X117.356 Y86.855 E.02689
G1 X116.855 Y86.295 E.02356
G1 X116.424 Y85.555 E.02685
G3 X116.079 Y83.992 I4.237 J-1.756 E.05044
G1 X116.159 Y83.13 E.02714
G1 X116.378 Y82.411 E.02357
G3 X117.808 Y80.642 I3.953 J1.733 E.07217
G1 X118.495 Y80.267 E.02454
G3 X120.69 Y79.995 I1.606 J3.969 E.07014
G1 X121.516 Y80.22 E.02684
G3 X123.27 Y81.565 I-1.647 J3.965 E.07009
G1 X123.701 Y82.307 E.0269
G1 X123.703 Y82.314 E.00023
M204 P1000
G1 X123.703 Y82.314 F9000
G1 X123.363 Y82.476
M204 P600
;TYPE:External perimeter
G1 F1200
G1 X123.372 Y82.492 E.00058
G1 X123.605 Y83.241 E.02459
G3 X123.429 Y85.231 I-3.819 J.665 E.06335
G1 X123.071 Y85.924 E.02446
G3 X121.55 Y87.219 I-3.189 J-2.203 E.06335
G1 X120.808 Y87.462 E.02448
G3 X118.209 Y87.027 I-.721 J-3.681 E.08442
G1 X117.585 Y86.555 E.02453
G1 X117.14 Y86.047 E.02117
G1 X116.752 Y85.369 E.02449
G3 X116.453 Y83.951 I3.961 J-1.575 E.04566
G1 X116.534 Y83.171 E.02459
G3 X118.011 Y80.96 I3.663 J.847 E.08521
G1 X118.675 Y80.598 E.02371
G3 X120.661 Y80.371 I1.42 J3.616 E.06339
G1 X121.412 Y80.583 E.02447
G3 X122.986 Y81.813 I-1.533 J3.583 E.06334
G1 X123.333 Y82.423 E.022
M204 P1000
G1 E-2.24 F4200
;WIPE_START
G1 F7200
G1 X123.363 Y82.476 E-.03375
G1 X123.372 Y82.492 E-.01017
G1 X123.605 Y83.241 E-.43469
G3 X123.657 Y84.106 I-3.819 J.666 E-.48139
;WIPE_END
G1 Z.4 F720
G1 X134.015 Y124.912 F9000
G1 Z.2 F720
G1 E3.2 F2400
M204 P600
;TYPE:Perimeter
G1 F1200
G1 X134.458 Y125.439 E.02159
G1 X134.866 Y126.193 E.02688
G1 X135.085 Y126.912 E.02357
G3 X134.908 Y129.108 I-4.217 J.766 E.06986
G1 X134.521 Y129.872 E.02685
G3 X133.494 Y130.947 I-3.961 J-2.755 E.0468
G1 X132.746 Y131.367 E.0269
G1 X132.03 Y131.596 E.02357
G3 X129.833 Y131.455 I-.832 J-4.212 E.06981
G1 X129.062 Y131.079 E.0269
G1 X128.465 Y130.622 E.02357
G1 X127.97 Y130.067 E.02332
G1 X127.54 Y129.326 E.02686
G3 X127.243 Y127.063 I3.941 J-1.667 E.07244
G3 X127.711 Y125.739 I4.859 J.972 E.04418
G1 X128.212 Y125.043 E.02689
G1 X128.764 Y124.532 E.02359
G1 X129.499 Y124.09 E.02689
G1 X130.206 Y123.839 E.02352
G1 X131.056 Y123.721 E.02691
G1 X131.804 Y123.767 E.0235
G1 X132.434 Y123.937 E.02046
G3 X133.303 Y124.332 I-1.129 J3.635 E.03001
G1 X133.974 Y124.864 E.02685
G1 X133.976 Y124.866 E.00009
M204 P1000
G1 X133.976 Y124.866 F9000
G1 X133.722 Y125.145
M204 P600
;TYPE:External perimeter
G1 F1200
G1 X133.736 Y125.156 E.00056
G1 X134.166 Y125.678 E.0212
G1 X134.531 Y126.367 E.02445
G3 X134.545 Y129.004 I-3.498 J1.337 E.08449
G1 X134.187 Y129.697 E.02446
G3 X133.251 Y130.659 I-3.575 J-2.543 E.04225
G1 X132.566 Y131.036 E.02452
G3 X129.931 Y131.091 I-1.391 J-3.492 E.08443
G1 X129.232 Y130.742 E.0245
G3 X128.255 Y129.82 I2.45 J-3.573 E.04229
G1 X127.868 Y129.141 E.0245
G3 X127.613 Y127.137 I3.589 J-1.475 E.06408
G3 X128.053 Y125.897 I4.361 J.85 E.04141
G1 X128.515 Y125.267 E.0245
G1 X129.016 Y124.813 E.0212
G1 X129.689 Y124.416 E.0245
G1 X130.327 Y124.196 E.02116
G1 X131.102 Y124.095 E.02451
G3 X133.128 Y124.666 I-.004 J3.898 E.06683
G1 X133.675 Y125.107 E.02203
M204 P1000
G1 E-2.24 F4200
;WIPE_START
G1 F7200
G1 X133.722 Y125.145 E-.03349
G1 X133.736 Y125.156 E-.00987
G1 X134.166 Y125.678 E-.37478
G1 X134.531 Y126.367 E-.43209
G3 X134.597 Y126.554 I-3.498 J1.338 E-.10977
;WIPE_END
G1 Z.4 F720
G1 X58.873 Y124.686 F9000
G1 Z.2 F720
G1 E3.2 F2400
M204 P600
;TYPE:Perimeter
G1 F1200
G1 X58.676 Y125.453 E.02483
G3 X57.904 Y126.726 I-4.449 J-1.827 E.04687
G1 X57.265 Y127.296 E.02685
G1 X56.616 Y127.675 E.02356
G1 X55.804 Y127.949 E.02687
G1 X55.057 Y128.042 E.0236
G1 X54.205 Y127.974 E.0268
G3 X52.23 Y126.976 I.874 J-4.186 E.07018
G1 X51.67 Y126.329 E.02683
G1 X51.302 Y125.675 E.02353
G3 X50.999 Y123.492 I3.922 J-1.656 E.0699
G1 X51.212 Y122.663 E.02684
G3 X51.984 Y121.39 I4.449 J1.827 E.04687
G1 X52.622 Y120.82 E.02682
G1 X53.272 Y120.441 E.02359
G1 X54.084 Y120.167 E.02687
G1 X54.831 Y120.075 E.0236
G1 X55.683 Y120.142 E.0268
G3 X57.658 Y121.14 I-.874 J4.186 E.07018
G1 X58.218 Y121.787 E.02683
G1 X58.586 Y122.441 E.02353
G3 X58.889 Y124.624 I-3.958 J1.661 E.06989
G1 X58.888 Y124.627 E.0001
M204 P1000
G1 X58.888 Y124.627 F9000
G1 X58.509 Y124.614
M204 P600
;TYPE:External perimeter
G1 F1200
G1 X58.312 Y125.354 E.02401
G3 X57.605 Y126.497 I-4.025 J-1.702 E.04231
G1 X57.018 Y127.011 E.02446
G1 X56.431 Y127.347 E.02121
G1 X55.689 Y127.59 E.02448
G1 X55.017 Y127.667 E.02121
G1 X54.24 Y127.598 E.02446
G3 X52.464 Y126.681 I.833 J-3.788 E.06338
G1 X51.958 Y126.086 E.02449
G3 X51.375 Y123.516 I3.135 J-2.062 E.08443
G1 X51.576 Y122.762 E.02447
G3 X52.283 Y121.619 I4.026 J1.702 E.04231
G1 X52.87 Y121.105 E.02446
G1 X53.457 Y120.769 E.02121
G1 X54.199 Y120.526 E.02448
G1 X54.871 Y120.449 E.02121
G1 X55.648 Y120.518 E.02446
G3 X57.424 Y121.436 I-.833 J3.788 E.0634
G1 X57.93 Y122.03 E.02447
G3 X58.518 Y124.555 I-3.135 J2.062 E.083
M204 P1000
G1 E-2.24 F4200
;WIPE_START
G1 F7200
G1 X58.509 Y124.614 E-.03307
G1 X58.312 Y125.354 E-.42437
G3 X57.875 Y126.147 I-4.026 J-1.701 E-.50256
;WIPE_END
G1 Z.4 F720
G1 X58.835 Y67.814 F9000
G1 Z.2 F720
G1 E3.2 F2400
M204 P600
;TYPE:Perimeter
G1 F1200
G1 X59.015 Y67.149 E.0216
G1 X59.401 Y66.386 E.02681
G3 X61.072 Y64.937 I3.545 J2.399 E.07014
G1 X61.884 Y64.664 E.02686
G3 X64.091 Y64.802 I.844 J4.196 E.07013
G1 X64.862 Y65.178 E.0269
G3 X65.953 Y66.189 I-2.562 J3.858 E.04684
G1 X66.383 Y66.929 E.02683
G3 X66.726 Y68.377 I-4.445 J1.819 E.04685
G3 X66.564 Y69.629 I-4.062 J.109 E.03974
G1 X66.465 Y69.988 E.01168
G3 X65.066 Y71.792 I-3.969 J-1.634 E.07245
G3 X63.717 Y72.418 I-2.7 J-4.05 E.04681
G1 X62.867 Y72.536 E.02691
G1 X62.005 Y72.469 E.02711
G3 X60.032 Y71.472 I.875 J-4.185 E.07011
G3 X58.895 Y69.586 I2.982 J-3.082 E.06983
G1 X58.764 Y68.739 E.02687
G1 X58.818 Y67.875 E.02714
G1 X58.819 Y67.872 E.0001
M204 P1000
G1 X58.819 Y67.872 F9000
G1 X59.193 Y67.923
M204 P600
;TYPE:External perimeter
G1 F1200
G1 X59.194 Y67.904 E.0006
G1 X59.377 Y67.254 E.02117
G1 X59.736 Y66.56 E.0245
G3 X61.257 Y65.265 I3.193 J2.211 E.06335
G1 X61.999 Y65.022 E.02448
G3 X63.993 Y65.166 I.727 J3.816 E.0634
G1 X64.692 Y65.515 E.0245
G3 X65.668 Y66.437 I-2.451 J3.573 E.04227
G1 X66.054 Y67.114 E.02443
G3 X66.313 Y69.096 I-3.585 J1.477 E.06339
G1 X66.109 Y69.863 E.02488
G3 X64.876 Y71.466 I-3.608 J-1.5 E.06414
G3 X63.596 Y72.061 I-2.471 J-3.642 E.04445
G1 X62.821 Y72.162 E.02451
G1 X62.04 Y72.093 E.02458
G1 X61.393 Y71.9 E.02117
G3 X59.25 Y69.46 I1.425 J-3.412 E.10542
G1 X59.138 Y68.686 E.02452
G1 X59.188 Y67.983 E.0221
M204 P1000
G1 E-2.24 F4200
;WIPE_START
G1 F7200
G1 X59.193 Y67.923 E-.03337
G1 X59.194 Y67.904 E-.01054
G1 X59.377 Y67.254 E-.37421
G1 X59.736 Y66.56 E-.433
G3 X59.852 Y66.401 I3.193 J2.211 E-.10888
;WIPE_END
G1 Z.4 F720
G1 X146.614 Y63.905 F9000
G1 Z.2 F720
G1 E3.2 F2400
M204 P600
;TYPE:Solid infill
;WIDTH:0.420708
G1 F1200
G1 X145.059 Y62.35 E.06908
G2 X143.935 Y61.431 I-8.16 J8.834 E.04564
G1 X142.827 Y60.653 E.04253
G1 X147.382 Y65.207 E.20233
G1 X149.009 Y67.369 E.085
G1 X141.029 Y59.389 E.35451
G1 X139.231 Y58.125 E.06904
G1 X150.636 Y69.53 E.50667
G1 X152.263 Y71.691 E.08497
G1 X137.433 Y56.861 E.65882
G1 X135.634 Y55.597 E.06907
G1 X153.89 Y73.852 E.811
G1 X155.517 Y76.014 E.085
G1 X133.836 Y54.333 E.96318
G1 X132.038 Y53.069 E.06904
G1 X157.144 Y78.175 E1.11533
G1 X158.771 Y80.336 E.08497
G1 X130.24 Y51.805 E1.26749
G1 X128.442 Y50.541 E.06904
G1 X160.397 Y82.497 E1.41962
G3 X161.438 Y84.072 I-7.45 J6.055 E.0594
G1 X126.643 Y49.278 E1.54574
G1 X124.845 Y48.014 E.06904
G1 X161.892 Y85.06 E1.64579
G3 X162.18 Y85.882 I-7.549 J3.107 E.02737
G1 X123.047 Y46.75 E1.73846
G1 X121.249 Y45.486 E.06904
G1 X162.365 Y86.602 E1.82658
G1 X162.485 Y87.256 E.02089
G1 X119.451 Y44.222 E1.91178
G1 X117.653 Y42.958 E.06904
G1 X162.554 Y87.859 E1.99473
G1 X162.585 Y88.425 E.01781
G1 X115.854 Y41.694 E2.07602
G1 X114.056 Y40.43 E.06904
M73 P0 R238
M73 Q0 S238
G1 X162.587 Y88.961 E2.15599
G1 X162.549 Y89.457 E.01563
G1 X112.258 Y39.166 E2.23418
G1 X110.46 Y37.902 E.06904
M73 P1 R238
M73 Q1 S238
G1 X162.509 Y89.952 E2.3123
G1 X162.445 Y90.422 E.0149
G1 X108.662 Y36.639 E2.38931
G1 X106.864 Y35.375 E.06904
G1 X162.379 Y90.89 E2.46625
G1 X162.313 Y91.358 E.01485
G1 X105.065 Y34.111 E2.54322
G1 X103.267 Y32.847 E.06904
G1 X162.247 Y91.827 E2.62019
G1 X162.181 Y92.295 E.01485
G1 X101.469 Y31.583 E2.69713
G1 X99.671 Y30.319 E.06904
G1 X162.116 Y92.764 E2.77412
G1 X162.05 Y93.232 E.01485
G1 X97.873 Y29.055 E2.85106
G1 X96.075 Y27.791 E.06904
G1 X161.984 Y93.701 E2.92803
G1 X161.918 Y94.169 E.01485
G1 X94.276 Y26.527 E3.00499
G1 X92.478 Y25.263 E.06904
G1 X161.852 Y94.637 E3.08194
G1 X161.786 Y95.106 E.01488
G1 X90.68 Y24 E3.15888
G2 X89.347 Y23.201 I-6.504 J9.342 E.04886
M73 P1 R237
M73 Q1 S237
G1 X161.72 Y95.574 E3.21517
G1 X161.654 Y96.043 E.01488
G1 X88.403 Y22.791 E3.2542
G2 X87.608 Y22.53 I-2.55 J6.433 E.0263
G1 X161.589 Y96.511 E3.2866
G1 X161.523 Y96.979 E.01485
G1 X86.901 Y22.358 E3.31506
G1 X86.254 Y22.244 E.02064
G1 X161.457 Y97.448 E3.34091
G1 X161.391 Y97.916 E.01485
G1 X85.655 Y22.18 E3.36457
G1 X85.099 Y22.158 E.01748
G1 X161.325 Y98.385 E3.38636
G1 X161.259 Y98.853 E.01485
G1 X84.557 Y22.151 E3.40748
G1 X84.023 Y22.151 E.01677
G1 X161.193 Y99.321 E3.42828
G1 X161.128 Y99.79 E.01487
G1 X83.489 Y22.151 E3.44911
G1 X82.954 Y22.151 E.01681
G1 X161.062 Y100.258 E3.46992
G1 X160.996 Y100.727 E.01488
M73 P1 R236
M73 Q1 S236
G1 X82.42 Y22.151 E3.49074
G1 X81.886 Y22.151 E.01677
G1 X160.93 Y101.195 E3.51153
G1 X160.864 Y101.663 E.01485
G1 X81.352 Y22.151 E3.53232
G1 X80.817 Y22.151 E.01681
G1 X160.798 Y102.132 E3.55315
G1 X160.732 Y102.6 E.01485
G1 X80.283 Y22.151 E3.57394
G1 X79.749 Y22.151 E.01677
G1 X160.666 Y103.069 E3.59476
G1 X160.601 Y103.537 E.01484
M73 P2 R236
M73 Q2 S236
G1 X79.214 Y22.151 E3.61559
G1 X78.68 Y22.151 E.01677
G1 X160.535 Y104.005 E3.63638
G1 X160.469 Y104.474 E.01488
G1 X78.146 Y22.151 E3.6572
G1 X77.612 Y22.151 E.01677
G1 X160.403 Y104.942 E3.67799
G1 X160.337 Y105.411 E.01488
G1 X77.077 Y22.151 E3.69882
M73 P2 R235
M73 Q2 S235
G1 X76.543 Y22.151 E.01677
G1 X160.271 Y105.879 E3.71961
G1 X160.205 Y106.347 E.01485
G1 X76.009 Y22.151 E3.74041
G1 X75.475 Y22.151 E.01677
G1 X160.14 Y106.816 E3.76124
G1 X160.074 Y107.284 E.01485
G1 X74.94 Y22.151 E3.78205
G1 X74.406 Y22.151 E.01677
G1 X160.008 Y107.753 E3.80287
G1 X159.942 Y108.221 E.01485
G1 X73.872 Y22.151 E3.82366
G1 X73.337 Y22.151 E.01681
G1 X159.876 Y108.69 E3.84449
G1 X159.81 Y109.158 E.01485
G1 X72.803 Y22.151 E3.86528
G1 X72.269 Y22.151 E.01677
G1 X159.744 Y109.626 E3.88607
G1 X159.678 Y110.095 E.01488
M73 P2 R234
M73 Q2 S234
G1 X71.735 Y22.151 E3.90689
G1 X71.2 Y22.151 E.01681
G1 X159.613 Y110.563 E3.92772
G1 X159.547 Y111.032 E.01488
G1 X70.666 Y22.151 E3.94854
G1 X70.132 Y22.151 E.01677
G1 X159.481 Y111.5 E3.96933
G1 X159.415 Y111.968 E.01485
G1 X69.598 Y22.151 E3.99012
G1 X69.063 Y22.151 E.01681
G1 X159.349 Y112.437 E4.01095
G1 X159.283 Y112.905 E.01485
G1 X68.529 Y22.151 E4.03174
G1 X67.995 Y22.151 E.01677
G1 X159.217 Y113.374 E4.05256
G1 X159.152 Y113.842 E.01484
G1 X67.46 Y22.151 E4.07339
G1 X66.926 Y22.151 E.01677
M73 P3 R234
M73 Q3 S234
G1 X159.086 Y114.31 E4.09418
G1 X159.02 Y114.779 E.01488
M73 P3 R233
M73 Q3 S233
G1 X66.392 Y22.151 E4.115
G1 X65.858 Y22.151 E.01677
G1 X158.954 Y115.247 E4.13579
G1 X158.888 Y115.716 E.01488
G1 X65.323 Y22.151 E4.15662
G1 X64.789 Y22.151 E.01677
G1 X158.822 Y116.184 E4.17741
G1 X158.756 Y116.652 E.01485
G1 X64.255 Y22.151 E4.1982
G1 X63.721 Y22.151 E.01677
G1 X121.411 Y79.841 E2.56288
G1 X120.806 Y79.668 E.01977
G1 X120.695 Y79.659 E.0035
G1 X63.186 Y22.151 E2.55481
G1 X62.652 Y22.151 E.01677
G1 X120.118 Y79.617 E2.55293
G2 X119.611 Y79.644 I-.154 J1.83 E.016
G1 X62.118 Y22.151 E2.55413
G1 X61.583 Y22.151 E.01681
G1 X119.14 Y79.708 E2.55697
