; generated by PrusaSlicer 2.7.4 on 2024-05-12 at 08:30:14 UTC


;
;

;
;

;
;

;
;
; 

; external perimeters extrusion width = 0.45mm
; perimeters extrusion width = 0.45mm
; infill extrusion width = 0.45mm
; solid infill extrusion width = 0.45mm
; top infill extrusion width = 0.40mm
; first layer extrusion width = 0.42mm

M73 P0 R241
M73 Q0 S241
M201 X2500 Y2500 Z400 E5000 ; sets maximum accelerations, mm/sec^2
M203 X180 Y180 Z12 E80 ; sets maximum feedrates, mm / sec
M204 P2000 R1250 T2500 ; sets acceleration (P, T) and retract acceleration (R), mm/sec^2
M205 X8.00 Y8.00 Z2.00 E10.00 ; sets the jerk limits, mm/sec
M205 S0 T0 ; sets the minimum extruding and travel feed rate, mm/sec

M486 S0
M486 Acase_hipro_mx_bottom.stl
M486 S-1

;TYPE:Custom
M862.3 P "MINI" ; printer model check
G90 ; use absolute coordinates
M83 ; extruder relative mode
M104 S170 ; set extruder temp for bed leveling
M140 S60 ; set bed temp
M109 R170 ; wait for bed leveling temp
M190 S60 ; wait for bed temp
M204 T1250 ; set travel acceleration
G28 ; home all without mesh bed level
G29 ; mesh bed leveling 
M204 T2500 ; restore travel acceleration
M104 S215 ; set extruder temp
G92 E0
G1 Y-2 X179 F2400
G1 Z3 F720
M109 S215 ; wait for extruder temp

; intro line
G1 X170 F1000
G1 Z0.2 F720
G1 X110 E8 F900
G1 X40 E10 F700
G92 E0

M221 S95 ; set flow
G21 ; set units to millimeters
G90 ; use absolute coordinates
M83 ; use relative distances for extrusion

M900 K0.2 ; Filament gcode LA 1.5
; ; Filament gcode LA 1.0




M107
;LAYER_CHANGE
;Z:0.2
;HEIGHT:0.2
G1 E-3.2 F4200
G1 Z.4 F720
G1 X38.811 Y55.218 F9000
G1 Z.2 F720
G1 E3.2 F2400
M204 P600
;TYPE:Skirt/Brim
;WIDTH:0.42
G1 F1200
G1 X87.407 Y21.062 E1.8624
G3 X95.045 Y18.647 I7.838 J11.508 E.25477
G1 X163.718 Y18.647 E2.15319
G1 X165.025 Y19.039 E.04278
G1 X165.902 Y20.085 E.0428
G1 X166.095 Y21.024 E.03006
G1 X166.095 Y144.083 E3.85843
G1 X165.704 Y145.39 E.04277
G1 X164.244 Y146.401 E.05568
G1 X112.961 Y158.024 E1.64872
G1 X90.277 Y161.237 E.71834
G1 X89.102 Y161.34 E.03698
G1 X68.751 Y160.983 E.63819
G1 X33.06 Y156.327 E1.12855
G3 X21.745 Y145.361 I1.961 J-13.344 E.52761
G1 X14.021 Y90.446 E1.73877
G3 X16.139 Y81.291 I13.508 J-1.696 E.30082
G1 X31.111 Y61.384 E.781
G3 X34.037 Y58.574 I12.627 J10.22 E.12753
G1 X38.762 Y55.253 E.18108
M204 P1000
G1 E-2.24 F4200
;WIPE_START
G1 F7200
G1 X38.811 Y55.218 E-.03337
G1 X40.179 Y54.256 E-.92663
;WIPE_END
G1 Z.4 F720
M486 S0
G1 X162.931 Y143.296 F9000
G1 Z.2 F720
G1 E3.2 F2400
M204 P600
;TYPE:Perimeter
;WIDTH:0.419999
G1 F1200
G1 X149.031 Y143.296 E.43582
G1 X148.859 Y143.323 E.00546
G1 X113.401 Y154.644 E1.16705
G3 X111.807 Y155.016 I-3.317 J-10.603 E.05137
G1 X89.851 Y158.102 E.69518
G3 X88.438 Y158.188 I-1.473 J-12.451 E.04441
G1 X69.8 Y157.872 E.58446
G1 X69.021 Y157.83 E.02446
G1 X33.508 Y153.195 E1.12293
G3 X24.812 Y144.498 I1.428 J-10.125 E.41374
G1 X17.143 Y89.915 E1.72822
G3 X19.091 Y82.592 I10.212 J-1.204 E.24333
M73 P0 R240
M73 Q0 S240
G1 X33.631 Y63.298 E.7575
G3 X35.865 Y61.157 I8.285 J6.409 E.09738
G1 X89.535 Y23.444 E2.05669
G3 X95.529 Y21.811 I5.616 J8.8 E.19778
G1 X162.931 Y21.811 E2.11334
G1 X162.931 Y47.232 E.79706
G1 X162.931 Y143.236 E3.01013
M204 P1000
G1 X163.308 Y143.673 F9000
M204 P600
;TYPE:External perimeter
G1 F1200
G1 X148.974 Y143.682 E.44943
G1 X113.511 Y155.005 E1.16722
G3 X111.866 Y155.389 I-3.425 J-10.957 E.05301
G1 X89.895 Y158.476 E.69565
G3 X88.44 Y158.566 I-1.516 J-12.824 E.04573
G1 X69.786 Y158.249 E.58497
G1 X68.986 Y158.205 E.02512
G1 X33.45 Y153.568 E1.12365
G3 X24.439 Y144.555 I1.486 J-10.497 E.42871
G1 X16.768 Y89.958 E1.72866
G3 X18.783 Y82.373 I10.586 J-1.247 E.252
G1 X33.334 Y63.065 E.75805
G3 X35.643 Y60.852 I8.579 J6.639 E.10065
G1 X89.331 Y23.127 E2.05737
G3 X95.527 Y21.434 I5.818 J9.113 E.20448
G1 X163.308 Y21.434 E2.12522
G1 X163.308 Y47.232 E.80888
G1 X163.308 Y143.613 E3.02195
M204 P1000
G1 E-2.24 F4200
;WIPE_START
G1 F7200
G1 X163.308 Y143.673 E-.03325
G1 X161.636 Y143.674 E-.92675
;WIPE_END
G1 Z.4 F720
G1 X113.279 Y68.671 F9000
G1 Z.2 F720
G1 E3.2 F2400
M204 P600
;TYPE:Perimeter
G1 F1200
G1 X113.329 Y67.875 E.02501
G1 X113.526 Y67.148 E.02362
G1 X113.912 Y66.386 E.02678
G3 X115.582 Y64.937 I3.545 J2.399 E.07012
G1 X116.394 Y64.664 E.02686
G3 X118.601 Y64.802 I.844 J4.196 E.07013
G1 X119.372 Y65.178 E.0269
G1 X119.968 Y65.634 E.02353
G1 X120.463 Y66.189 E.02332
G1 X120.893 Y66.929 E.02683
G3 X121.2 Y69.119 I-3.935 J1.668 E.07013
G1 X120.988 Y69.949 E.02686
G3 X119.669 Y71.724 I-3.983 J-1.581 E.07013
G1 X118.935 Y72.166 E.02686
G1 X118.228 Y72.418 E.02353
G1 X117.378 Y72.536 E.02691
G1 X116.628 Y72.489 E.02356
G1 X115.802 Y72.263 E.02685
G3 X113.998 Y70.852 I1.639 J-3.954 E.0727
G3 X113.406 Y69.586 I4.098 J-2.689 E.04397
G1 X113.275 Y68.739 E.02687
G1 X113.275 Y68.731 E.00025
M204 P1000
G1 X113.275 Y68.731 F9000
G1 X113.651 Y68.705
M204 P600
;TYPE:External perimeter
G1 F1200
G1 X113.648 Y68.686 E.0006
G1 X113.705 Y67.904 E.02458
G1 X113.888 Y67.253 E.0212
G1 X114.246 Y66.56 E.02446
G3 X115.767 Y65.265 I3.194 J2.211 E.06335
G1 X116.51 Y65.023 E.0245
G3 X118.503 Y65.166 I.726 J3.815 E.06336
G1 X119.202 Y65.515 E.0245
G3 X120.178 Y66.437 I-2.451 J3.573 E.04227
G1 X120.565 Y67.114 E.02445
G3 X120.824 Y69.096 I-3.585 J1.477 E.06339
G1 X120.624 Y69.85 E.02446
G3 X119.417 Y71.444 I-3.6 J-1.472 E.0634
G1 X118.745 Y71.841 E.02447
G1 X118.107 Y72.061 E.02116
G1 X117.331 Y72.162 E.02454
G1 X116.657 Y72.113 E.02119
G1 X115.906 Y71.901 E.02447
G3 X114.315 Y70.649 I1.525 J-3.574 E.06422
G3 X113.761 Y69.46 I3.662 J-2.432 E.04128
G1 X113.66 Y68.764 E.02205
M204 P1000
G1 E-2.24 F4200
;WIPE_START
G1 F7200
G1 X113.651 Y68.705 E-.03307
G1 X113.648 Y68.686 E-.01066
G1 X113.705 Y67.904 E-.43451
G1 X113.888 Y67.253 E-.37475
G1 X113.977 Y67.082 E-.10701
;WIPE_END
G1 Z.4 F720
G1 X121.397 Y125.617 F9000
G1 Z.2 F720
G1 E3.2 F2400
M204 P600
;TYPE:Perimeter
G1 F1200
G1 X121.152 Y124.859 E.02498
G3 X121.353 Y122.581 I4.208 J-.778 E.07258
G1 X121.713 Y121.89 E.02443
G3 X123.383 Y120.441 I3.547 J2.4 E.07012
G1 X124.196 Y120.167 E.0269
G1 X124.942 Y120.075 E.02357
G1 X125.794 Y120.142 E.0268
G1 X126.517 Y120.35 E.02359
G3 X128.263 Y121.694 I-1.652 J3.955 E.06987
G1 X128.694 Y122.434 E.02685
G1 X128.935 Y123.147 E.0236
G1 X129.04 Y123.998 E.02688
G1 X128.935 Y124.97 E.03065
G3 X127.932 Y126.816 I-4.167 J-1.07 E.06654
G3 X126.029 Y127.923 I-3.035 J-3.028 E.06981
G1 X125.178 Y128.041 E.02694
G1 X124.317 Y127.974 E.02708
G1 X123.594 Y127.766 E.02359
G3 X121.848 Y126.423 I1.657 J-3.962 E.06985
G1 X121.417 Y125.682 E.02688
G1 X121.415 Y125.674 E.00026
M204 P1000
G1 X121.415 Y125.674 F9000
G1 X121.755 Y125.513
M204 P600
;TYPE:External perimeter
G1 F1200
G1 X121.746 Y125.497 E.00058
G1 X121.513 Y124.749 E.02456
G3 X121.698 Y122.734 I3.822 J-.666 E.06419
G1 X122.047 Y122.065 E.02366
G3 X123.568 Y120.769 I3.196 J2.211 E.06337
G1 X124.311 Y120.526 E.02451
G1 X124.982 Y120.449 E.02118
G1 X125.759 Y120.518 E.02446
G3 X127.979 Y121.941 I-.785 J3.667 E.08448
G1 X128.366 Y122.619 E.02448
G1 X128.576 Y123.262 E.02121
G1 X128.665 Y124.038 E.02449
G1 X128.601 Y124.663 E.0197
G3 X128.381 Y125.462 I-3.563 J-.551 E.02604
G3 X125.908 Y127.566 I-3.392 J-1.482 E.10539
G1 X125.132 Y127.666 E.02453
G1 X124.352 Y127.598 E.02455
G3 X122.133 Y126.176 I.786 J-3.669 E.08444
G1 X121.785 Y125.565 E.02205
M204 P1000
G1 E-2.24 F4200
;WIPE_START
G1 F7200
G1 X121.755 Y125.513 E-.03327
G1 X121.746 Y125.497 E-.01017
G1 X121.513 Y124.749 E-.43416
G3 X121.461 Y123.882 I3.822 J-.666 E-.4824
;WIPE_END
G1 Z.4 F720
G1 X55.96 Y83.924 F9000
G1 Z.2 F720
G1 E3.2 F2400
M204 P600
;TYPE:Perimeter
G1 F1200
G1 X56.034 Y83.13 E.025
G1 X56.253 Y82.411 E.02357
G3 X57.623 Y80.686 I3.947 J1.728 E.06984
G1 X58.37 Y80.267 E.02685
G3 X60.565 Y79.995 I1.606 J3.969 E.07014
G1 X61.478 Y80.253 E.02975
G3 X63.145 Y81.565 I-1.771 J3.966 E.06719
G1 X63.576 Y82.307 E.0269
G1 X63.841 Y83.131 E.02714
G3 X63.666 Y85.336 I-4.202 J.777 E.07015
G1 X63.28 Y86.099 E.02681
G3 X61.61 Y87.548 I-3.541 J-2.394 E.07012
G1 X60.798 Y87.821 E.02686
G3 X59.312 Y87.866 I-.889 J-4.745 E.0468
G1 X58.485 Y87.64 E.02688
G1 X57.813 Y87.302 E.02359
G1 X57.142 Y86.77 E.02685
G3 X56.058 Y84.843 I3.07 J-2.996 E.07011
G1 X55.953 Y83.992 E.02688
G1 X55.954 Y83.984 E.00025
M204 P1000
G1 X55.954 Y83.984 F9000
G1 X56.33 Y83.969
M204 P600
;TYPE:External perimeter
G1 F1200
G1 X56.328 Y83.951 E.00057
G1 X56.409 Y83.171 E.02459
G3 X57.866 Y80.974 I3.659 J.846 E.08445
G1 X58.55 Y80.598 E.02447
G3 X60.535 Y80.371 I1.419 J3.617 E.06336
G1 X61.316 Y80.594 E.02547
G3 X62.86 Y81.813 I-1.575 J3.583 E.06235
G1 X63.247 Y82.492 E.0245
G1 X63.48 Y83.241 E.02459
G3 X63.304 Y85.231 I-3.819 J.665 E.06335
G1 X62.946 Y85.924 E.02446
G3 X61.425 Y87.219 I-3.189 J-2.204 E.06335
G1 X60.682 Y87.462 E.02451
G3 X59.341 Y87.49 I-.763 J-4.324 E.04222
G1 X58.589 Y87.278 E.0245
G1 X57.988 Y86.968 E.0212
G1 X57.38 Y86.478 E.02448
G3 X56.417 Y84.727 I2.814 J-2.691 E.06337
G1 X56.337 Y84.029 E.02203
M204 P1000
G1 E-2.24 F4200
;WIPE_START
G1 F7200
G1 X56.33 Y83.969 E-.03348
G1 X56.328 Y83.951 E-.01004
G1 X56.409 Y83.171 E-.43457
G3 X56.701 Y82.354 I3.66 J.846 E-.48191
;WIPE_END
G1 Z.4 F720
G1 X45.16 Y126.135 F9000
G1 Z.2 F720
G1 E3.2 F2400
M204 P600
;TYPE:Perimeter
G1 F1200
G3 X45.945 Y124.945 I4.36 J2.021 E.04486
G3 X47.866 Y123.833 I3.048 J3.05 E.07039
G1 X48.698 Y123.721 E.02632
G1 X49.447 Y123.767 E.02353
G1 X50.274 Y123.993 E.02688
G1 X50.945 Y124.332 E.02357
G1 X51.616 Y124.864 E.02685
G3 X52.464 Y126.087 I-3.479 J3.317 E.04685
G1 X52.724 Y126.904 E.02688
G3 X52.746 Y128.391 I-4.727 J.813 E.04682
G1 X52.509 Y129.213 E.02682
G3 X51.136 Y130.948 I-3.938 J-1.705 E.07017
G1 X50.388 Y131.367 E.02688
G3 X48.194 Y131.639 I-1.605 J-3.969 E.07011
G1 X47.368 Y131.414 E.02684
G3 X45.614 Y130.068 I1.647 J-3.965 E.07011
G1 X45.182 Y129.326 E.02692
G1 X44.918 Y128.503 E.0271
G3 X44.896 Y127.015 I4.728 J-.814 E.04685
G1 X45.134 Y126.193 E.02683
G3 X45.135 Y126.19 I4.386 J1.963 E.0001
M204 P1000
G1 X45.135 Y126.19 F9000
G1 X45.489 Y126.32
M204 P600
;TYPE:External perimeter
G1 F1200
G1 X45.495 Y126.302 E.00059
G1 X45.814 Y125.707 E.02117
G3 X47.975 Y124.194 I3.099 J2.127 E.08451
G1 X48.745 Y124.095 E.02434
G1 X49.418 Y124.143 E.02116
G1 X50.17 Y124.356 E.02451
G1 X50.77 Y124.666 E.02118
G1 X51.378 Y125.156 E.02448
G3 X52.133 Y126.267 I-3.193 J2.981 E.04228
G1 X52.364 Y127.013 E.02449
G3 X52.371 Y128.356 I-4.302 J.695 E.04228
G1 X52.148 Y129.104 E.02447
G3 X50.893 Y130.66 I-3.558 J-1.586 E.06339
G1 X50.208 Y131.036 E.0245
G3 X48.223 Y131.263 I-1.419 J-3.617 E.06336
G1 X47.472 Y131.051 E.02447
G3 X45.898 Y129.821 I1.533 J-3.584 E.06334
G1 X45.511 Y129.141 E.02453
G1 X45.279 Y128.393 E.02456
G3 X45.271 Y127.05 I4.301 J-.695 E.04228
G1 X45.472 Y126.378 E.02199
M204 P1000
G1 E-2.24 F4200
;WIPE_START
G1 F7200
G1 X45.489 Y126.32 E-.03349
G1 X45.495 Y126.302 E-.01051
G1 X45.814 Y125.707 E-.37413
G3 X46.465 Y124.981 I3.099 J2.127 E-.54187
;WIPE_END
G1 Z.4 F720
G1 X162.761 Y22.744 F9000
G1 Z.2 F720
G1 E3.2 F2400
M204 P600
;TYPE:Solid infill
;WIDTH:0.420426
G1 F1200
G1 X162.168 Y22.151 E.02632
G1 X161.634 Y22.151 E.01676
G1 X162.592 Y23.109 E.04253
G1 X162.592 Y23.642 E.01673
G1 X161.1 Y22.151 E.06621
G1 X160.566 Y22.151 E.01676
G1 X162.592 Y24.176 E.08992
G1 X162.592 Y24.71 E.01676
G1 X160.032 Y22.151 E.11362
G1 X159.498 Y22.151 E.01676
G1 X162.592 Y25.244 E.13733
G1 X162.592 Y25.778 E.01676
G1 X158.965 Y22.151 E.16101
G1 X158.431 Y22.151 E.01676
G1 X162.592 Y26.312 E.18471
G1 X162.592 Y26.846 E.01676
G1 X157.897 Y22.151 E.20842
G1 X157.363 Y22.151 E.01676
G1 X162.592 Y27.38 E.23212
G1 X162.592 Y27.913 E.01673
G1 X156.829 Y22.151 E.25581
G1 X156.295 Y22.151 E.01676
G1 X162.592 Y28.447 E.27951
G1 X162.592 Y28.981 E.01676
G1 X155.761 Y22.151 E.30322
G1 X155.228 Y22.151 E.01673
M73 P0 R239
M73 Q0 S239
G1 X162.592 Y29.515 E.3269
G1 X162.592 Y30.049 E.01676
G1 X154.694 Y22.151 E.35061
G1 X154.16 Y22.151 E.01676
G1 X162.592 Y30.583 E.37431
G1 X162.592 Y31.117 E.01676
G1 X153.626 Y22.151 E.39802
G1 X153.092 Y22.151 E.01676
G1 X162.592 Y31.651 E.42172
G1 X162.592 Y32.184 E.01673
G1 X152.558 Y22.151 E.44541
G1 X152.024 Y22.151 E.01676
G1 X162.592 Y32.718 E.46911
G1 X162.592 Y33.252 E.01676
G1 X151.49 Y22.151 E.49282
G1 X150.957 Y22.151 E.01673
G1 X162.592 Y33.786 E.5165
G1 X162.592 Y34.32 E.01676
G1 X150.423 Y22.151 E.5402
G1 X149.889 Y22.151 E.01676
G1 X162.592 Y34.854 E.56391
G1 X162.592 Y35.388 E.01676
G1 X149.355 Y22.151 E.58761
G1 X148.821 Y22.151 E.01676
G1 X162.592 Y35.922 E.61132
G1 X162.592 Y36.455 E.01673
G1 X148.287 Y22.151 E.635
G1 X147.753 Y22.151 E.01676
G1 X162.592 Y36.989 E.65871
G1 X162.592 Y37.523 E.01676
G1 X147.219 Y22.151 E.68241
G1 X146.686 Y22.151 E.01673
G1 X162.592 Y38.057 E.7061
G1 X162.592 Y38.591 E.01676
G1 X146.152 Y22.151 E.7298
G1 X145.618 Y22.151 E.01676
G1 X162.592 Y39.125 E.75351
G1 X162.592 Y39.659 E.01676
G1 X145.084 Y22.151 E.77721
G1 X144.55 Y22.151 E.01676
G1 X162.592 Y40.193 E.80092
G1 X162.592 Y40.726 E.01673
G1 X144.016 Y22.151 E.8246
G1 X143.482 Y22.151 E.01676
G1 X162.592 Y41.26 E.84831
G1 X162.592 Y41.794 E.01676
G1 X142.948 Y22.151 E.87201
G1 X142.415 Y22.151 E.01673
G1 X162.592 Y42.328 E.89569
G1 X162.592 Y42.862 E.01676
G1 X141.881 Y22.151 E.9194
G1 X141.347 Y22.151 E.01676
G1 X162.592 Y43.396 E.9431
G1 X162.592 Y43.93 E.01676
G1 X140.813 Y22.151 E.96681
G1 X140.279 Y22.151 E.01676
G1 X162.592 Y44.464 E.99051
G1 X162.592 Y44.997 E.01673
G1 X139.745 Y22.151 E1.0142
G1 X139.211 Y22.151 E.01676
G1 X162.592 Y45.531 E1.0379
G1 X162.592 Y46.065 E.01676
M73 P1 R239
M73 Q1 S239
G1 X138.677 Y22.151 E1.06161
G1 X138.144 Y22.151 E.01673
G1 X162.592 Y46.599 E1.08529
G1 X162.592 Y47.133 E.01676
G1 X137.61 Y22.151 E1.109
G1 X137.076 Y22.151 E.01676
G1 X162.592 Y47.667 E1.1327
G1 X162.592 Y48.201 E.01676
G1 X136.542 Y22.151 E1.15641
G1 X136.008 Y22.151 E.01676
G1 X162.592 Y48.735 E1.18011
G1 X162.592 Y49.268 E.01673
G1 X135.474 Y22.151 E1.2038
G1 X134.94 Y22.151 E.01676
G1 X162.592 Y49.802 E1.2275
G1 X162.592 Y50.336 E.01676
G1 X134.406 Y22.151 E1.25121
G1 X133.873 Y22.151 E.01673
G1 X162.592 Y50.87 E1.27489
G1 X162.592 Y51.404 E.01676
G1 X133.339 Y22.151 E1.29859
G1 X132.805 Y22.151 E.01676
G1 X162.592 Y51.938 E1.3223
G1 X162.592 Y52.472 E.01676
G1 X132.271 Y22.151 E1.346
G1 X131.737 Y22.151 E.01676
M73 P1 R238
M73 Q1 S238
G1 X162.592 Y53.005 E1.36969
G1 X162.592 Y53.539 E.01676
G1 X131.203 Y22.151 E1.39339
G1 X130.669 Y22.151 E.01676
G1 X162.592 Y54.073 E1.4171
G1 X162.592 Y54.607 E.01676
G1 X130.135 Y22.151 E1.4408
G1 X129.602 Y22.151 E.01673
G1 X162.592 Y55.141 E1.46449
G1 X162.592 Y55.675 E.01676
G1 X129.068 Y22.151 E1.48819
G1 X128.534 Y22.151 E.01676
G1 X162.592 Y56.209 E1.5119
G1 X162.592 Y56.743 E.01676
G1 X128 Y22.151 E1.5356
G1 X127.466 Y22.151 E.01676
G1 X162.592 Y57.276 E1.55928
G1 X162.592 Y57.81 E.01676
G1 X126.932 Y22.151 E1.58299
G1 X126.398 Y22.151 E.01676
G1 X162.592 Y58.344 E1.6067
G1 X162.592 Y58.878 E.01676
G1 X125.864 Y22.151 E1.6304
G1 X125.331 Y22.151 E.01673
G1 X162.592 Y59.412 E1.65408
G1 X162.592 Y59.946 E.01676
G1 X124.797 Y22.151 E1.67779
G1 X124.263 Y22.151 E.01676
G1 X162.592 Y60.48 E1.70149
G1 X162.592 Y61.014 E.01676
G1 X123.729 Y22.151 E1.7252
G1 X123.195 Y22.151 E.01676
G1 X162.592 Y61.547 E1.74888
G1 X162.592 Y62.081 E.01676
G1 X122.661 Y22.151 E1.77259
G1 X122.127 Y22.151 E.01676
G1 X162.592 Y62.615 E1.79629
G1 X162.592 Y63.149 E.01676
G1 X121.593 Y22.151 E1.82
G1 X121.06 Y22.151 E.01673
G1 X162.592 Y63.683 E1.84368
G1 X162.592 Y64.217 E.01676
G1 X120.526 Y22.151 E1.86739
G1 X119.992 Y22.151 E.01676
G1 X162.592 Y64.751 E1.89109
G1 X162.592 Y65.285 E.01676
M73 P1 R237
M73 Q1 S237
G1 X119.458 Y22.151 E1.9148
G1 X118.924 Y22.151 E.01676
G1 X162.592 Y65.818 E1.93848
G1 X162.592 Y66.352 E.01676
G1 X118.39 Y22.151 E1.96218
G1 X117.856 Y22.151 E.01676
G1 X162.592 Y66.886 E1.98589
G1 X162.592 Y67.42 E.01676
G1 X117.322 Y22.151 E2.0096
G1 X116.789 Y22.151 E.01673
G1 X162.592 Y67.954 E2.03328
G1 X162.592 Y68.488 E.01676
G1 X116.255 Y22.151 E2.05698
G1 X115.721 Y22.151 E.01676
G1 X162.592 Y69.022 E2.08069
