; generated by PrusaSlicer 2.7.4 on 2024-05-11 at 22:28:35 UTC


;
;

;
;

;
;

;
;
; 

; external perimeters extrusion width = 0.45mm
; perimeters extrusion width = 0.45mm
; infill extrusion width = 0.45mm
; solid infill extrusion width = 0.45mm
; top infill extrusion width = 0.40mm
; first layer extrusion width = 0.42mm

; external perimeters extrusion width = 0.45mm
; perimeters extrusion width = 0.45mm
; infill extrusion width = 0.45mm
; solid infill extrusion width = 0.45mm
; top infill extrusion width = 0.40mm
; first layer extrusion width = 0.42mm

; external perimeters extrusion width = 0.45mm
; perimeters extrusion width = 0.45mm
; infill extrusion width = 0.45mm
; solid infill extrusion width = 0.45mm
; top infill extrusion width = 0.40mm
; first layer extrusion width = 0.42mm

; external perimeters extrusion width = 0.45mm
; perimeters extrusion width = 0.45mm
; infill extrusion width = 0.45mm
; solid infill extrusion width = 0.45mm
; top infill extrusion width = 0.40mm
; first layer extrusion width = 0.42mm

; external perimeters extrusion width = 0.45mm
; perimeters extrusion width = 0.45mm
; infill extrusion width = 0.45mm
; solid infill extrusion width = 0.45mm
; top infill extrusion width = 0.40mm
; first layer extrusion width = 0.42mm

M73 P0 R164
M73 Q0 S164
M201 X2500 Y2500 Z400 E5000 ; sets maximum accelerations, mm/sec^2
M203 X180 Y180 Z12 E80 ; sets maximum feedrates, mm / sec
M204 P2000 R1250 T2500 ; sets acceleration (P, T) and retract acceleration (R), mm/sec^2
M205 X8.00 Y8.00 Z2.00 E10.00 ; sets the jerk limits, mm/sec
M205 S0 T0 ; sets the minimum extruding and travel feed rate, mm/sec

M486 S0
M486 Astandoff_m2_3_5.stl
M486 S-1
M486 S1
M486 Astandoff_m2_3_5.stl
M486 S-1
M486 S2
M486 Astandoff_m2_3_5.stl
M486 S-1
M486 S3
M486 Acase_hipro_mx_top.stl
M486 S-1
M486 S4
M486 Astandoff_m2_3_5.stl
M486 S-1

;TYPE:Custom
M862.3 P "MINI" ; printer model check
G90 ; use absolute coordinates
M83 ; extruder relative mode
M104 S170 ; set extruder temp for bed leveling
M140 S60 ; set bed temp
M109 R170 ; wait for bed leveling temp
M190 S60 ; wait for bed temp
M204 T1250 ; set travel acceleration
G28 ; home all without mesh bed level
G29 ; mesh bed leveling 
M204 T2500 ; restore travel acceleration
M104 S215 ; set extruder temp
G92 E0
G1 Y-2 X179 F2400
G1 Z3 F720
M109 S215 ; wait for extruder temp

; intro line
G1 X170 F1000
G1 Z0.2 F720
G1 X110 E8 F900
G1 X40 E10 F700
G92 E0

M221 S95 ; set flow
G21 ; set units to millimeters
G90 ; use absolute coordinates
M83 ; use relative distances for extrusion

M900 K0.2 ; Filament gcode LA 1.5
; ; Filament gcode LA 1.0




M107
;LAYER_CHANGE
;Z:0.2
;HEIGHT:0.2
G1 E-3.2 F4200
G1 Z.4 F720
G1 X18.342 Y24.841 F9000
G1 Z.2 F720
G1 E3.2 F2400
M204 P600
;TYPE:Skirt/Brim
;WIDTH:0.42
G1 F1200
G1 X19.282 Y24.647 E.03009
G1 X87.949 Y24.647 E2.15301
G1 X88.932 Y24.716 E.0309
G1 X116.873 Y28.475 E.88396
G3 X120.128 Y29.753 I-1.207 J7.861 E.11055
G1 X144.754 Y47.062 E.94378
G3 X146.96 Y49.614 I-4.793 J6.374 E.10657
G1 X162.533 Y85.87 E1.23721
G3 X163.023 Y89.719 I-7.4 J2.898 E.1229
M73 P0 R163
M73 Q0 S163
G1 X155.328 Y144.42 E1.732
G3 X149.149 Y150.379 I-7.304 J-1.39 E.28692
G1 X113.743 Y155.004 E1.11956
G1 X93.861 Y155.326 E.62347
G1 X70.843 Y152.053 E.72897
G1 X32.586 Y140.356 E1.25434
G1 X31.451 Y139.599 E.04278
G1 X31.042 Y138.881 E.02591
G1 X17.043 Y99.578 E1.30815
G1 X16.905 Y98.78 E.02539
G1 X16.905 Y27.024 E2.24986
G1 X17.296 Y25.717 E.04277
G1 X18.296 Y24.879 E.04091
M204 P1000
G1 E-2.24 F4200
;WIPE_START
G1 F7200
G1 X18.342 Y24.841 E-.03306
G1 X19.282 Y24.647 E-.53189
G1 X19.995 Y24.647 E-.39505
;WIPE_END
G1 Z.4 F720
G1 X136.092 Y52.028 F9000
G1 Z.2 F720
G1 E3.2 F2400
M204 P600
G1 F1200
G3 X140.665 Y48.591 I4.328 J.998 E.19488
G1 X141.386 Y48.69 E.02282
G3 X136.079 Y52.087 I-.966 J4.336 E.65538
M204 P1000
G1 X136.079 Y52.087 F9000
G1 X136.453 Y52.168
M204 P600
G1 F1200
G3 X139.841 Y49.004 I3.974 J.859 E.15466
G1 X140.632 Y48.967 E.02483
G3 X136.441 Y52.227 I-.205 J4.06 E.61945
M204 P1000
G1 X136.441 Y52.227 F9000
G1 X136.807 Y52.3
M204 P600
G1 F1200
G3 X140.601 Y49.343 I3.616 J.727 E.16429
G1 X141.19 Y49.42 E.01862
G3 X136.796 Y52.359 I-.767 J3.607 E.54188
M204 P1000
G1 X136.796 Y52.359 F9000
G1 X137.169 Y52.428
M204 P600
G1 F1200
G3 X139.919 Y49.755 I3.257 J.6 E.12824
G1 X140.572 Y49.719 E.02051
G3 X137.158 Y52.487 I-.146 J3.309 E.50182
M204 P1000
G1 X137.158 Y52.487 F9000
G1 X137.53 Y52.549
M204 P600
G1 F1200
G3 X140.544 Y50.096 I2.896 J.48 E.13316
G1 X141.002 Y50.151 E.01446
G3 X137.521 Y52.608 I-.576 J2.878 E.42883
M204 P1000
G1 X137.521 Y52.608 F9000
G1 X137.892 Y52.662
M204 P600
G1 F1200
G3 X140.065 Y50.496 I2.533 J.368 E.10316
G1 X140.517 Y50.472 E.01419
G3 X137.884 Y52.721 I-.092 J2.558 E.3849
M204 P1000
G1 X137.884 Y52.721 F9000
G1 X138.261 Y52.767
M204 P600
G1 F1200
G3 X140.492 Y50.849 I2.166 J.263 E.10123
G1 X140.824 Y50.884 E.01047
G3 X138.254 Y52.827 I-.397 J2.146 E.31635
M204 P1000
G1 E-2.24 F4200
;WIPE_START
G1 F7200
G1 X138.261 Y52.767 E-.03348
G3 X139.049 Y51.338 I2.167 J.263 E-.92652
;WIPE_END
G1 Z.4 F720
G1 X135.504 Y50.288 F9000
G1 Z.2 F720
G1 E3.2 F2400
M204 P600
G1 F1200
G3 X132.484 Y42.841 I-3.264 J-3.012 E.56013
G1 X133.205 Y42.941 E.02282
G3 X135.544 Y50.244 I-.965 J4.335 E.29013
M204 P1000
G1 X135.544 Y50.244 F9000
G1 X135.268 Y49.996
M204 P600
G1 F1200
G3 X131.66 Y43.254 I-3.022 J-2.719 E.48879
G1 X132.451 Y43.217 E.02483
G3 X135.308 Y49.951 I-.205 J4.06 E.28529
M204 P1000
G1 X135.308 Y49.951 F9000
G1 X135.022 Y49.702
M204 P600
G1 F1200
G3 X132.42 Y43.593 I-2.78 J-2.425 E.46762
G1 X133.01 Y43.67 E.01866
G3 X135.061 Y49.656 I-.768 J3.607 E.23844
M204 P1000
G1 X135.061 Y49.656 F9000
G1 X134.776 Y49.415
M204 P600
G1 F1200
G3 X131.738 Y44.005 I-2.531 J-2.137 E.40057
G1 X132.391 Y43.969 E.02051
G3 X134.814 Y49.369 I-.146 J3.309 E.22952
M204 P1000
G1 X134.814 Y49.369 F9000
G1 X134.522 Y49.131
M204 P600
G1 F1200
G3 X132.363 Y44.346 I-2.277 J-1.852 E.37464
G1 X132.822 Y44.401 E.01449
G3 X134.56 Y49.084 I-.577 J2.878 E.1873
M204 P1000
G1 X134.56 Y49.084 F9000
G1 X134.262 Y48.853
M204 P600
G1 F1200
G3 X131.884 Y44.746 I-2.018 J-1.573 E.31367
G1 X132.336 Y44.722 E.01419
G3 X134.299 Y48.805 I-.092 J2.558 E.17441
M204 P1000
G1 X134.299 Y48.805 F9000
G1 X133.999 Y48.582
M204 P600
G1 F1200
G3 X132.312 Y45.099 I-1.752 J-1.302 E.2808
G1 X132.643 Y45.134 E.01044
G3 X134.034 Y48.533 I-.396 J2.146 E.13684
M204 P1000
G1 E-2.24 F4200
;WIPE_START
G1 F7200
G1 X133.999 Y48.582 E-.03337
G3 X132.607 Y49.433 I-1.752 J-1.302 E-.92663
;WIPE_END
G1 Z.4 F720
G1 X127.693 Y44.079 F9000
G1 Z.2 F720
G1 E3.2 F2400
M204 P600
G1 F1200
G3 X124.303 Y37.091 I-3.634 J-2.553 E.57864
G1 X125.025 Y37.191 E.02285
G3 X127.727 Y44.03 I-.966 J4.335 E.27161
M204 P1000
G1 X127.727 Y44.03 F9000
G1 X127.422 Y43.821
M204 P600
G1 F1200
G3 X123.479 Y37.504 I-3.357 J-2.294 E.50572
G1 X124.27 Y37.467 E.02483
G3 X127.455 Y43.771 I-.205 J4.06 E.26833
M204 P1000
G1 X127.138 Y43.562 F9000
M204 P600
G1 F1200
G3 X124.24 Y37.843 I-3.076 J-2.034 E.48303
G1 X124.829 Y37.92 E.01862
G3 X127.171 Y43.511 I-.767 J3.608 E.22306
M204 P1000
G1 X127.171 Y43.511 F9000
G1 X126.856 Y43.31
M204 P600
G1 F1200
G3 X123.558 Y38.255 I-2.792 J-1.782 E.41446
G1 X124.21 Y38.22 E.02047
G3 X126.888 Y43.26 I-.146 J3.308 E.21567
M204 P1000
G1 X126.888 Y43.26 F9000
G1 X126.567 Y43.063
M204 P600
G1 F1200
G3 X124.182 Y38.596 I-2.503 J-1.534 E.38684
G1 X124.641 Y38.651 E.01449
G3 X126.598 Y43.011 I-.577 J2.878 E.17506
M204 P1000
G1 X126.598 Y43.011 F9000
G1 X126.272 Y42.821
M204 P600
G1 F1200
G3 X123.703 Y38.996 I-2.209 J-1.291 E.32436
G1 X124.156 Y38.972 E.01422
G3 X126.302 Y42.769 I-.093 J2.558 E.1637
M204 P1000
G1 X125.975 Y42.588 F9000
M204 P600
G1 F1200
G3 X124.131 Y39.349 I-1.909 J-1.058 E.28992
G1 X124.462 Y39.384 E.01044
G3 X126.004 Y42.535 I-.396 J2.146 E.12775
M204 P1000
G1 E-2.24 F4200
;WIPE_START
G1 F7200
G1 X125.975 Y42.588 E-.03348
G3 X124.708 Y43.616 I-1.909 J-1.058 E-.92652
;WIPE_END
G1 Z.4 F720
G1 X119.572 Y38.242 F9000
G1 Z.2 F720
G1 E3.2 F2400
M204 P600
G1 F1200
G3 X116.122 Y31.341 I-3.694 J-2.466 E.58194
G1 X116.844 Y31.441 E.02285
G3 X119.605 Y38.192 I-.966 J4.335 E.2683
M204 P1000
G1 X119.605 Y38.192 F9000
G1 X119.294 Y37.99
M204 P600
G1 F1200
G3 X115.299 Y31.754 I-3.41 J-2.213 E.50885
G1 X116.09 Y31.717 E.02483
G3 X119.327 Y37.94 I-.206 J4.06 E.2653
M204 P1000
G1 X119.327 Y37.94 F9000
G1 X119.005 Y37.738
M204 P600
G1 F1200
G3 X116.059 Y32.093 I-3.124 J-1.96 E.48578
G1 X116.648 Y32.17 E.01862
G3 X119.037 Y37.687 I-.767 J3.608 E.22035
M204 P1000
G1 X119.037 Y37.687 F9000
G1 X118.717 Y37.493
M204 P600
G1 F1200
G3 X115.377 Y32.505 I-2.833 J-1.715 E.41692
G1 X116.03 Y32.47 E.0205
G3 X118.748 Y37.442 I-.146 J3.308 E.21317
M204 P1000
G1 X118.748 Y37.442 F9000
G1 X118.422 Y37.253
M204 P600
G1 F1200
G3 X116.001 Y32.846 I-2.539 J-1.474 E.38903
G1 X116.46 Y32.901 E.01449
G3 X118.452 Y37.201 I-.577 J2.878 E.17292
M204 P1000
G1 X118.452 Y37.201 F9000
G1 X118.122 Y37.018
M204 P600
G1 F1200
G3 X115.522 Y33.246 I-2.24 J-1.238 E.32624
G1 X115.975 Y33.222 E.01422
G3 X118.15 Y36.965 I-.093 J2.558 E.16178
M204 P1000
G1 X118.15 Y36.965 F9000
G1 X117.819 Y36.792
M204 P600
G1 F1200
G3 X115.95 Y33.599 I-1.934 J-1.012 E.29155
G1 X116.281 Y33.634 E.01044
G3 X117.846 Y36.739 I-.396 J2.146 E.12613
M204 P1000
G1 E-2.24 F4200
;WIPE_START
G1 F7200
G1 X117.819 Y36.792 E-.03296
G3 X116.577 Y37.85 I-1.934 J-1.012 E-.92704
;WIPE_END
G1 Z.4 F720
M486 S3
G1 X54.23 Y136.977 F9000
G1 Z.2 F720
G1 E3.2 F2400
M204 P600
;TYPE:Perimeter
;WIDTH:0.419999
G1 F1200
G3 X53.81 Y137.096 I-.359 J-.464 E.01402
G1 X39.508 Y135.086 E.45284
G1 X39.324 Y135.027 E.00606
G3 X39.027 Y134.448 I.323 J-.532 E.02147
G1 X41.037 Y120.146 E.45284
G1 X41.152 Y119.875 E.00923
G1 X41.387 Y119.699 E.00921
G1 X41.676 Y119.664 E.00913
G1 X55.978 Y121.674 E.45284
G1 X56.261 Y121.799 E.0097
G3 X56.463 Y122.187 I-.47 J.492 E.01396
G1 X56.382 Y122.865 E.02141
G1 X56.26 Y123.56 E.02212
;WIDTH:0.398462
G1 X56.323 Y123.35 E.00648
;WIDTH:0.419999
G1 X56.567 Y122.931 E.0152
G3 X57.225 Y122.421 I2.696 J2.805 E.02615
G1 X57.769 Y122.287 E.01757
G3 X58.431 Y122.339 I.142 J2.462 E.02088
G1 X58.964 Y122.6 E.01861
G3 X59.477 Y123.145 I-1.587 J2.008 E.02355
G1 X59.7 Y123.771 E.02084
G1 X59.715 Y123.992 E.00695
;WIDTH:0.406472
G1 X59.668 Y124.279 E.00879
G1 X59.762 Y124.011 E.00859
;WIDTH:0.419999
G1 X59.926 Y123.861 E.00697
G1 X60.282 Y123.794 E.01136
G1 X74.585 Y125.804 E.45287
G3 X75.061 Y126.257 I-.125 J.609 E.02171
G1 X75.005 Y126.881 E.01964
G1 X73.055 Y140.745 E.43897
G1 X73.002 Y140.917 E.00564
G1 X72.78 Y141.155 E.0102
G3 X72.416 Y141.226 I-.323 J-.682 E.01175
G1 X58.115 Y139.216 E.4528
G1 X57.845 Y139.102 E.00919
G3 X57.628 Y138.683 I.462 J-.505 E.0151
G1 X59.519 Y125.161 E.4281
G1 X59.581 Y124.827 E.01065
;WIDTH:0.390496
G1 X59.642 Y124.492 E.00984
;WIDTH:0.389754
G1 X59.598 Y124.682 E.00562
;WIDTH:0.419999
G1 X59.377 Y125.114 E.01521
G3 X58.855 Y125.588 I-1.845 J-1.509 E.02219
G3 X57.964 Y125.838 I-.984 J-1.79 E.02927
G3 X56.852 Y125.464 I.023 J-1.904 E.03739
G3 X56.295 Y124.729 I1.306 J-1.568 E.02917
G1 X56.181 Y124.138 E.01887
G1 X56.119 Y124.738 E.01891
G1 X54.449 Y136.615 E.37606
G3 X54.276 Y136.938 I-.578 J-.102 E.01168
M204 P1000
G1 X54.276 Y136.938 F9000
G1 X53.991 Y136.683
M204 P600
;TYPE:External perimeter
G1 F1200
G3 X53.863 Y136.723 I-.127 J-.18 E.00427
G1 X39.561 Y134.713 E.45284
G3 X39.4 Y134.5 I.062 J-.214 E.00897
G1 X41.41 Y120.198 E.45284
G3 X41.624 Y120.038 I.212 J.061 E.009
G1 X55.926 Y122.048 E.45284
G3 X56.086 Y122.261 I-.062 J.213 E.00896
G1 X56.009 Y122.812 E.01744
G1 X54.075 Y136.562 E.43536
G3 X54.034 Y136.642 I-.211 J-.059 E.00284
M204 P1000
G1 E-2.24 F4200
;WIPE_START
G1 F7200
M73 P0 R162
M73 Q0 S162
G1 X53.991 Y136.683 E-.03293
G3 X53.863 Y136.723 I-.127 J-.18 E-.07552
G1 X52.341 Y136.509 E-.85155
;WIPE_END
G1 Z.4 F720
G1 X56.561 Y124.235 F9000
G1 Z.2 F720
G1 E3.2 F2400
M204 P600
G1 F1200
G1 X56.541 Y124.166 E.00225
G1 X56.537 Y124.093 E.00229
G1 X56.635 Y123.541 E.01758
G1 X56.939 Y123.074 E.01747
G1 X57.369 Y122.77 E.01651
G1 X57.867 Y122.652 E.01605
G1 X58.361 Y122.714 E.01561
G1 X58.822 Y122.955 E.01631
G1 X59.162 Y123.353 E.01641
G1 X59.34 Y123.882 E.0175
G1 X59.299 Y124.436 E.01742
G1 X59.046 Y124.934 E.01751
G1 X58.619 Y125.293 E.01749
G1 X58.086 Y125.458 E.01749
G1 X57.531 Y125.403 E.01749
G1 X57.041 Y125.137 E.01748
G1 X56.693 Y124.703 E.01744
G1 X56.577 Y124.293 E.01336
M204 P1000
G1 X56.577 Y124.293 F9000
G1 X56.181 Y124.138
M204 P600
;TYPE:Perimeter
;WIDTH:0.375576
G1 F1200
G1 X56.26 Y123.56 E.01614
M204 P1000
G1 E-2.24 F4200
;WIPE_START
G1 F7200
G1 X56.181 Y124.138 E-.32329
;WIPE_END
G1 E-.63671 F4200
G1 Z.4 F720
G1 X58.007 Y138.63 F9000
G1 Z.2 F720
G1 E3.2 F2400
M204 P600
;TYPE:External perimeter
;WIDTH:0.419999
G1 F1200
G1 X60.017 Y124.328 E.45284
G3 X60.229 Y124.168 I.214 J.063 E.00892
G1 X74.532 Y126.177 E.45286
G3 X74.693 Y126.39 I-.063 J.215 E.00897
G1 X72.682 Y140.692 E.45284
G3 X72.469 Y140.853 I-.214 J-.062 E.00898
G1 X58.167 Y138.843 E.45284
G1 X58.044 Y138.771 E.00447
G1 X58.022 Y138.688 E.00269
M204 P1000
G1 E-2.24 F4200
;WIPE_START
G1 F7200
G1 X58.007 Y138.63 E-.0332
G1 X58.24 Y136.974 E-.9268
;WIPE_END
G1 Z.4 F720
G1 X59.668 Y124.279 F9000
G1 Z.2 F720
G1 E3.2 F2400
M204 P600
;TYPE:Perimeter
;WIDTH:0.369252
G1 F1200
G1 X59.642 Y124.492 E.00582
M204 P1000
G1 E-2.24 F4200
;WIPE_START
G1 F7200
G1 X59.668 Y124.279 E-.11891
;WIPE_END
G1 E-.84109 F4200
G1 Z.4 F720
G1 X60.677 Y120.366 F9000
G1 Z.2 F720
G1 E3.2 F2400
M204 P600
;WIDTH:0.419999
G1 F1200
G1 X60.488 Y120.285 E.00645
G3 X60.272 Y119.826 I.461 J-.496 E.0163
G1 X62.288 Y105.46 E.45485
G3 X62.926 Y104.979 I.577 J.102 E.02756
G1 X77.228 Y106.989 E.45284
G3 X77.705 Y107.442 I-.125 J.609 E.02173
G1 X77.648 Y108.066 E.01965
G1 X75.7 Y121.93 E.43897
G1 X75.644 Y122.108 E.00585
G1 X75.413 Y122.347 E.01042
G3 X75.061 Y122.412 I-.416 J-1.273 E.01126
G1 X60.759 Y120.401 E.45284
G1 X60.733 Y120.39 E.00089
M204 P1000
G1 X60.733 Y120.39 F9000
G1 X60.812 Y120.027
M204 P600
;TYPE:External perimeter
G1 F1200
G3 X60.651 Y119.815 I.059 J-.211 E.00897
G1 X62.661 Y105.513 E.45284
G3 X62.874 Y105.352 I.214 J.062 E.00898
G1 X77.176 Y107.362 E.45284
G3 X77.336 Y107.575 I-.064 J.215 E.00895
G1 X75.326 Y121.878 E.45287
G3 X75.114 Y122.038 I-.214 J-.063 E.00892
G1 X60.871 Y120.036 E.45097
M204 P1000
G1 E-2.24 F4200
;WIPE_START
G1 F7200
G1 X60.812 Y120.027 E-.03307
G3 X60.651 Y119.815 I.059 J-.212 E-.15846
G1 X60.844 Y118.442 E-.76847
;WIPE_END
G1 Z.4 F720
G1 X93.799 Y129.596 F9000
G1 Z.2 F720
G1 E3.2 F2400
M204 P600
;TYPE:Perimeter
G1 F1200
G3 X93.532 Y129.943 I-.645 J-.221 E.01398
G3 X93.18 Y130.007 I-.416 J-1.273 E.01125
G1 X78.878 Y127.997 E.45284
G1 X78.687 Y127.933 E.00632
G1 X78.462 Y127.71 E.00993
G1 X78.392 Y127.456 E.00826
G1 X78.458 Y126.92 E.01693
G1 X80.407 Y113.056 E.43897
G1 X80.463 Y112.878 E.00585
G1 X80.694 Y112.639 E.01042
G3 X81.046 Y112.574 I.296 J.621 E.01135
G1 X95.348 Y114.584 E.45284
G1 X95.539 Y114.648 E.00632
G1 X95.764 Y114.871 E.00993
G3 X95.829 Y115.223 I-.615 J.296 E.01136
G1 X93.819 Y129.526 E.45287
G3 X93.816 Y129.539 I-.665 J-.151 E.00042
M204 P1000
G1 X93.816 Y129.539 F9000
G1 X93.446 Y129.474
M204 P600
;TYPE:External perimeter
G1 F1200
G3 X93.233 Y129.634 I-.214 J-.063 E.00895
G1 X78.931 Y127.623 E.45284
G3 X78.77 Y127.41 I.063 J-.215 E.00897
M73 P1 R162
M73 Q1 S162
G1 X78.832 Y126.972 E.01387
G1 X80.78 Y113.108 E.43897
G3 X80.993 Y112.948 I.215 J.064 E.00895
G1 X95.295 Y114.958 E.45284
G3 X95.455 Y115.171 I-.063 J.214 E.00895
G1 X93.454 Y129.414 E.45096
M204 P1000
G1 E-2.24 F4200
;WIPE_START
G1 F7200
G1 X93.446 Y129.474 E-.03354
G3 X93.233 Y129.634 I-.214 J-.063 E-.15821
G1 X91.86 Y129.441 E-.76825
;WIPE_END
G1 Z.4 F720
G1 X90.616 Y148.825 F9000
G1 Z.2 F720
G1 E3.2 F2400
M204 P600
;TYPE:Perimeter
G1 F1200
G3 X90.536 Y148.822 I-.016 J-.582 E.00251
G1 X76.234 Y146.812 E.45284
G3 X75.747 Y146.226 I.099 J-.577 E.02601
G1 X77.762 Y131.871 E.4545
G1 X77.818 Y131.694 E.00582
G1 X78.049 Y131.455 E.01042
G3 X78.401 Y131.39 I.296 J.621 E.01135
