; generated by PrusaSlicer 2.7.4 on 2024-05-12 at 08:34:57 UTC


;
;

;
;

;
;

;
;
; 

; external perimeters extrusion width = 0.45mm
; perimeters extrusion width = 0.45mm
; infill extrusion width = 0.45mm
; solid infill extrusion width = 0.45mm
; top infill extrusion width = 0.40mm
; first layer extrusion width = 0.42mm

; external perimeters extrusion width = 0.45mm
; perimeters extrusion width = 0.45mm
; infill extrusion width = 0.45mm
; solid infill extrusion width = 0.45mm
; top infill extrusion width = 0.40mm
; first layer extrusion width = 0.42mm

; external perimeters extrusion width = 0.45mm
; perimeters extrusion width = 0.45mm
; infill extrusion width = 0.45mm
; solid infill extrusion width = 0.45mm
; top infill extrusion width = 0.40mm
; first layer extrusion width = 0.42mm

; external perimeters extrusion width = 0.45mm
; perimeters extrusion width = 0.45mm
; infill extrusion width = 0.45mm
; solid infill extrusion width = 0.45mm
; top infill extrusion width = 0.40mm
; first layer extrusion width = 0.42mm

; external perimeters extrusion width = 0.45mm
; perimeters extrusion width = 0.45mm
; infill extrusion width = 0.45mm
; solid infill extrusion width = 0.45mm
; top infill extrusion width = 0.40mm
; first layer extrusion width = 0.42mm

M73 P0 R262
M73 Q0 S262
M201 X2500 Y2500 Z400 E5000 ; sets maximum accelerations, mm/sec^2
M203 X180 Y180 Z12 E80 ; sets maximum feedrates, mm / sec
M204 P2000 R1250 T2500 ; sets acceleration (P, T) and retract acceleration (R), mm/sec^2
M205 X8.00 Y8.00 Z2.00 E10.00 ; sets the jerk limits, mm/sec
M205 S0 T0 ; sets the minimum extruding and travel feed rate, mm/sec

M486 S0
M486 Astandoff_m2_3_5.stl
M486 S-1
M486 S1
M486 Astandoff_m2_3_5.stl
M486 S-1
M486 S2
M486 Astandoff_m2_3_5.stl
M486 S-1
M486 S3
M486 Astandoff_m2_3_5.stl
M486 S-1
M486 S4
M486 Acase_hipro_mx_top.stl
M486 S-1

;TYPE:Custom
M862.3 P "MINI" ; printer model check
G90 ; use absolute coordinates
M83 ; extruder relative mode
M104 S170 ; set extruder temp for bed leveling
M140 S60 ; set bed temp
M109 R170 ; wait for bed leveling temp
M190 S60 ; wait for bed temp
M204 T1250 ; set travel acceleration
G28 ; home all without mesh bed level
G29 ; mesh bed leveling 
M204 T2500 ; restore travel acceleration
M104 S215 ; set extruder temp
G92 E0
G1 Y-2 X179 F2400
G1 Z3 F720
M109 S215 ; wait for extruder temp

; intro line
G1 X170 F1000
G1 Z0.2 F720
G1 X110 E8 F900
G1 X40 E10 F700
G92 E0

M221 S95 ; set flow
G21 ; set units to millimeters
G90 ; use absolute coordinates
M83 ; use relative distances for extrusion

M900 K0.2 ; Filament gcode LA 1.5
; ; Filament gcode LA 1.0




M107
;LAYER_CHANGE
;Z:0.2
;HEIGHT:0.2
G1 E-3.2 F4200
G1 Z.4 F720
G1 X35.288 Y47.032 F9000
G1 Z.2 F720
G1 E3.2 F2400
M204 P600
;TYPE:Skirt/Brim
;WIDTH:0.42
G1 F1200
G3 X35.328 Y47.002 I4.836 J6.446 E.00157
G1 X59.91 Y29.725 E.94208
G3 X62.807 Y28.526 I4.82 J7.545 E.09881
G1 X91.758 Y24.654 E.91582
G1 X160.718 Y24.647 E2.16219
G1 X162.025 Y25.039 E.04278
G1 X162.902 Y26.085 E.0428
G1 X163.095 Y27.024 E.03006
G1 X163.095 Y98.78 E2.24986
G1 X162.957 Y99.578 E.02539
G1 X148.957 Y138.881 E1.30816
G1 X148.149 Y139.98 E.04277
G1 X147.413 Y140.356 E.02591
G1 X109.105 Y152.067 E1.25599
G1 X85.994 Y155.337 E.73185
G1 X66.114 Y154.989 E.62342
G1 X30.658 Y150.348 E1.12118
G3 X24.639 Y144.232 I1.324 J-7.322 E.28677
G1 X16.977 Y89.719 E1.72602
G3 X17.466 Y85.871 I7.879 J-.953 E.12287
G1 X32.795 Y50.128 E1.21941
G3 X35.24 Y47.068 I7.329 J3.35 E.12405
M204 P1000
G1 E-2.24 F4200
;WIPE_START
G1 F7200
G1 X35.288 Y47.032 E-.03325
G3 X35.328 Y47.002 I4.855 J6.432 E-.02771
G1 X36.655 Y46.069 E-.89904
;WIPE_END
G1 Z.4 F720
G1 X36.958 Y49.433 F9000
G1 Z.2 F720
G1 E3.2 F2400
M204 P600
G1 F1200
G3 X39.813 Y48.591 I2.61 J3.593 E.09517
G1 X40.534 Y48.691 E.02282
G3 X36.909 Y49.468 I-.966 J4.335 E.7551
M73 P0 R261
M73 Q0 S261
M204 P1000
G1 X36.909 Y49.468 F9000
G1 X37.138 Y49.773
M204 P600
G1 F1200
G3 X38.989 Y49.004 I2.437 J3.254 E.0635
G1 X39.78 Y48.967 E.02483
G3 X37.09 Y49.81 I-.205 J4.06 E.71059
M204 P1000
G1 X37.09 Y49.81 F9000
G1 X37.319 Y50.106
M204 P600
G1 F1200
G3 X39.749 Y49.343 I2.252 J2.921 E.08154
G1 X40.339 Y49.42 E.01866
G3 X37.272 Y50.143 I-.768 J3.607 E.62459
M204 P1000
G1 X37.272 Y50.143 F9000
G1 X37.508 Y50.44
M204 P600
G1 F1200
G3 X39.067 Y49.755 I2.066 J2.588 E.054
G1 X39.72 Y49.719 E.02051
G3 X37.462 Y50.477 I-.146 J3.309 E.57611
M204 P1000
G1 X37.462 Y50.477 F9000
G1 X37.702 Y50.768
M204 P600
G1 F1200
G3 X39.692 Y50.096 I1.872 J2.261 E.06735
G1 X40.151 Y50.151 E.01449
G3 X37.656 Y50.806 I-.577 J2.878 E.49459
M204 P1000
G1 X37.656 Y50.806 F9000
G1 X37.902 Y51.091
M204 P600
G1 F1200
G3 X39.213 Y50.496 I1.671 J1.939 E.04576
G1 X39.665 Y50.472 E.01419
G3 X37.857 Y51.131 I-.092 J2.558 E.44229
M204 P1000
G1 X37.857 Y51.131 F9000
G1 X38.111 Y51.412
M204 P600
G1 F1200
G3 X39.641 Y50.849 I1.465 J1.618 E.05239
G1 X39.972 Y50.884 E.01044
G3 X38.067 Y51.453 I-.396 J2.146 E.36525
M204 P1000
G1 E-2.24 F4200
;WIPE_START
G1 F7200
G1 X38.111 Y51.412 E-.03333
G3 X39.641 Y50.849 I1.464 J1.619 E-.9259
G1 X39.642 Y50.849 E-.00077
;WIPE_END
G1 Z.4 F720
G1 X43.671 Y49.035 F9000
G1 Z.2 F720
G1 E3.2 F2400
M204 P600
G1 F1200
G3 X47.993 Y42.841 I4.078 J-1.759 E.28311
G1 X48.715 Y42.941 E.02285
G3 X43.695 Y49.09 I-.966 J4.335 E.56716
M204 P1000
G1 X43.695 Y49.09 F9000
G1 X44.044 Y48.935
M204 P600
G1 F1200
G3 X47.17 Y43.254 I3.712 J-1.658 E.23534
G1 X47.961 Y43.217 E.02483
G3 X44.069 Y48.989 I-.205 J4.06 E.53881
M204 P1000
G1 X44.069 Y48.989 F9000
G1 X44.407 Y48.832
M204 P600
G1 F1200
G3 X47.93 Y43.593 I3.345 J-1.554 E.23757
G1 X48.519 Y43.67 E.01862
G3 X44.433 Y48.886 I-.767 J3.608 E.46863
M204 P1000
G1 X44.433 Y48.886 F9000
G1 X44.773 Y48.721
M204 P600
G1 F1200
G3 X47.248 Y44.005 I2.982 J-1.443 E.194
G1 X47.901 Y43.97 E.0205
G3 X44.8 Y48.775 I-.146 J3.308 E.43612
M204 P1000
G1 X45.136 Y48.605 F9000
M204 P600
G1 F1200
G3 X47.873 Y44.346 I2.619 J-1.326 E.19141
G1 X48.331 Y44.401 E.01446
G3 X45.163 Y48.658 I-.576 J2.878 E.37057
M204 P1000
G1 X45.163 Y48.658 F9000
G1 X45.495 Y48.482
M204 P600
G1 F1200
G3 X47.394 Y44.746 I2.259 J-1.202 E.15396
G1 X47.846 Y44.722 E.01419
G3 X45.523 Y48.535 I-.092 J2.558 E.33404
M204 P1000
G1 X45.523 Y48.535 F9000
G1 X45.854 Y48.349
M204 P600
G1 F1200
G3 X47.821 Y45.099 I1.902 J-1.069 E.1445
G1 X48.153 Y45.134 E.01047
G3 X45.884 Y48.401 I-.397 J2.146 E.27309
M204 P1000
G1 E-2.24 F4200
;WIPE_START
G1 F7200
G1 X45.854 Y48.349 E-.03327
G3 X45.645 Y46.731 I1.903 J-1.069 E-.92673
;WIPE_END
G1 Z.4 F720
G1 X52.265 Y44.034 F9000
G1 Z.2 F720
G1 E3.2 F2400
M204 P600
G1 F1200
G3 X56.174 Y37.091 I3.665 J-2.508 E.30995
G1 X56.896 Y37.191 E.02285
G3 X52.299 Y44.084 I-.966 J4.335 E.54028
M204 P1000
G1 X52.299 Y44.084 F9000
G1 X52.611 Y43.865
M204 P600
G1 F1200
G3 X55.351 Y37.504 I3.325 J-2.338 E.25991
G1 X56.142 Y37.467 E.02483
G3 X52.645 Y43.913 I-.206 J4.06 E.51423
M204 P1000
G1 X52.645 Y43.913 F9000
G1 X52.948 Y43.694
M204 P600
G1 F1200
G3 X56.111 Y37.843 I2.985 J-2.166 E.25986
G1 X56.7 Y37.92 E.01862
G3 X52.983 Y43.742 I-.767 J3.608 E.44633
M204 P1000
G1 X52.983 Y43.742 F9000
G1 X53.286 Y43.516
M204 P600
G1 F1200
G3 X55.429 Y38.255 I2.65 J-1.988 E.21404
G1 X56.082 Y38.22 E.0205
G3 X53.322 Y43.563 I-.146 J3.308 E.41611
M204 P1000
G1 X53.322 Y43.563 F9000
G1 X53.619 Y43.332
M204 P600
G1 F1200
G3 X56.053 Y38.596 I2.316 J-1.803 E.20912
G1 X56.512 Y38.651 E.01449
G3 X53.656 Y43.379 I-.577 J2.878 E.35282
M204 P1000
G1 X53.656 Y43.379 F9000
G1 X53.948 Y43.143
M204 P600
G1 F1200
G3 X55.574 Y38.996 I1.986 J-1.613 E.16944
G1 X56.027 Y38.972 E.01422
G3 X53.986 Y43.189 I-.093 J2.558 E.31857
M204 P1000
G1 X53.986 Y43.189 F9000
G1 X54.274 Y42.944
M204 P600
G1 F1200
G3 X56.002 Y39.349 I1.663 J-1.414 E.15773
G1 X56.333 Y39.384 E.01044
G3 X54.314 Y42.989 I-.396 J2.146 E.25993
M204 P1000
G1 E-2.24 F4200
;WIPE_START
G1 F7200
G1 X54.274 Y42.944 E-.03337
G3 X53.758 Y41.396 I1.663 J-1.414 E-.92663
;WIPE_END
G1 Z.4 F720
G1 X60.534 Y38.409 F9000
G1 Z.2 F720
G1 E3.2 F2400
M204 P600
G1 F1200
G3 X64.355 Y31.341 I3.577 J-2.633 E.31478
G1 X65.076 Y31.441 E.02282
G3 X60.57 Y38.457 I-.965 J4.335 E.53556
M204 P1000
G1 X60.57 Y38.457 F9000
G1 X60.874 Y38.228
M204 P600
G1 F1200
G3 X63.531 Y31.754 I3.243 J-2.451 E.26428
G1 X64.322 Y31.717 E.02483
G3 X60.91 Y38.275 I-.205 J4.06 E.50987
M204 P1000
G1 X60.91 Y38.275 F9000
G1 X61.205 Y38.046
M204 P600
G1 F1200
G3 X64.292 Y32.093 I2.908 J-2.268 E.26389
G1 X64.881 Y32.17 E.01862
G3 X61.242 Y38.093 I-.767 J3.608 E.44229
M204 P1000
G1 X61.242 Y38.093 F9000
G1 X61.537 Y37.856
M204 P600
G1 F1200
G3 X63.61 Y32.505 I2.579 J-2.077 E.21761
G1 X64.262 Y32.47 E.02047
G3 X61.575 Y37.902 I-.146 J3.309 E.41257
M204 P1000
G1 X61.575 Y37.902 F9000
G1 X61.863 Y37.661
M204 P600
G1 F1200
G3 X64.234 Y32.846 I2.253 J-1.882 E.21232
G1 X64.693 Y32.901 E.01449
G3 X61.902 Y37.707 I-.577 J2.878 E.34959
M204 P1000
G1 X61.902 Y37.707 F9000
G1 X62.185 Y37.46
M204 P600
G1 F1200
G3 X63.755 Y33.246 I1.93 J-1.68 E.17219
G1 X64.208 Y33.222 E.01422
G3 X62.225 Y37.505 I-.093 J2.558 E.31581
M204 P1000
G1 X62.505 Y37.25 F9000
M204 P600
G1 F1200
G3 X64.183 Y33.599 I1.613 J-1.47 E.16005
G1 X64.514 Y33.634 E.01044
G3 X62.546 Y37.294 I-.396 J2.146 E.25757
M204 P1000
G1 E-2.24 F4200
;WIPE_START
G1 F7200
G1 X62.505 Y37.25 E-.03333
G3 X61.937 Y35.72 I1.614 J-1.47 E-.92667
;WIPE_END
G1 Z.4 F720
M486 S4
G1 X45.766 Y141.201 F9000
G1 Z.2 F720
G1 E3.2 F2400
M204 P600
;TYPE:Perimeter
;WIDTH:0.419999
G1 F1200
G3 X45.442 Y141.376 I-.428 J-.404 E.01174
G1 X31.139 Y143.386 E.45287
G1 X30.839 Y143.347 E.00949
G1 X30.618 Y143.179 E.0087
G1 X30.5 Y142.905 E.00935
G1 X28.49 Y128.603 E.45284
G1 X28.501 Y128.39 E.00669
G3 X28.973 Y127.964 I.596 J.186 E.02092
G1 X43.275 Y125.953 E.45284
G1 X43.581 Y125.996 E.00969
G3 X43.887 Y126.325 I-.351 J.632 E.01432
G3 X44.065 Y127.683 I-16.446 J2.848 E.04296
G1 X44.114 Y127.201 E.01519
G3 X44.455 Y126.558 I2.359 J.84 E.0229
G3 X45.077 Y126.079 I2.137 J2.128 E.02469
G1 X45.646 Y125.933 E.01842
G3 X46.293 Y125.98 I.123 J2.769 E.02039
G3 X47.016 Y126.385 I-.953 J2.549 E.02608
;WIDTH:0.424573
G1 X47.329 Y126.754 E.01536
;WIDTH:0.431292
G1 X47.44 Y126.95 E.00727
G1 X47.345 Y126.238 E.0232
;WIDTH:0.419999
G1 X47.303 Y125.932 E.00968
G3 X47.502 Y125.446 I.677 J-.006 E.01691
G1 X47.787 Y125.32 E.00977
G1 X62.089 Y123.31 E.45284
G1 X62.291 Y123.318 E.00634
G1 X62.569 Y123.471 E.00995
G3 X62.728 Y123.791 I-.51 J.453 E.01134
G1 X64.738 Y138.093 E.45284
G1 X64.733 Y138.279 E.00583
G1 X64.577 Y138.573 E.01044
G3 X64.256 Y138.732 I-.505 J-.613 E.01133
G1 X49.955 Y140.742 E.4528
G3 X49.316 Y140.26 I-.054 J-.594 E.02751
G1 X47.609 Y128.119 E.38442
G1 X47.589 Y127.859 E.00818
;WIDTH:0.387243
G1 X47.57 Y127.6 E.00744
G1 X47.56 Y127.86 E.00745
;WIDTH:0.419999
G3 X47.485 Y128.334 I-1.113 J.066 E.01517
G3 X46.732 Y129.233 I-1.77 J-.718 E.03737
G3 X46.011 Y129.478 I-1.179 J-2.28 E.02396
G1 X45.362 Y129.423 E.02042
G3 X44.562 Y128.961 I.594 J-1.955 E.02922
G1 X44.186 Y128.407 E.02099
G1 X45.923 Y140.738 E.39045
G3 X45.805 Y141.155 I-.585 J.059 E.01392
M204 P1000
G1 X45.805 Y141.155 F9000
G1 X45.489 Y140.942
M204 P600
;TYPE:External perimeter
G1 F1200
G3 X45.389 Y141.003 I-.163 J-.153 E.00372
G1 X31.087 Y143.013 E.45284
G3 X30.874 Y142.852 J-.222 E.00898
G1 X28.864 Y128.551 E.4528
G3 X29.025 Y128.338 I.22 J-.001 E.00899
G1 X43.327 Y126.327 E.45284
G1 X43.475 Y126.369 E.00482
G1 X43.545 Y126.523 E.0053
G1 X45.55 Y140.79 E.45173
G3 X45.524 Y140.893 I-.224 J-.001 E.00336
M204 P1000
G1 E-2.24 F4200
;WIPE_START
G1 F7200
G1 X45.489 Y140.942 E-.03337
G3 X45.389 Y141.003 I-.162 J-.154 E-.06568
G1 X43.85 Y141.219 E-.86095
;WIPE_END
G1 Z.4 F720
G1 X44.799 Y128.635 F9000
G1 Z.2 F720
G1 E3.2 F2400
M204 P600
G1 F1200
G1 X44.57 Y128.348 E.01151
G1 X44.418 Y127.81 E.01753
G1 X44.487 Y127.258 E.01744
G1 X44.764 Y126.774 E.01749
G1 X45.21 Y126.436 E.01755
G1 X45.731 Y126.3 E.01688
G1 X46.238 Y126.36 E.01601
G1 X46.727 Y126.627 E.01747
G1 X47.074 Y127.064 E.0175
G1 X47.224 Y127.555 E.0161
G1 X47.176 Y128.082 E.01659
G1 X46.922 Y128.578 E.01747
G1 X46.496 Y128.938 E.01749
G1 X45.963 Y129.103 E.01749
G1 X45.409 Y129.049 E.01745
G1 X44.918 Y128.783 E.01751
G1 X44.837 Y128.682 E.00406
M204 P1000
G1 E-2.24 F4200
;WIPE_START
G1 F7200
G1 X44.799 Y128.635 E-.03349
G1 X44.57 Y128.348 E-.20347
G1 X44.418 Y127.81 E-.30981
G1 X44.487 Y127.258 E-.30828
G1 X44.581 Y127.094 E-.10495
;WIPE_END
G1 Z.4 F720
G1 X47.57 Y127.6 F9000
G1 Z.2 F720
G1 E3.2 F2400
M204 P600
;TYPE:Perimeter
;WIDTH:0.392889
G1 F1200
G1 X47.505 Y127.275 E.00964
;WIDTH:0.431292
G1 X47.44 Y126.95 E.0107
M204 P1000
G1 E-2.24 F4200
;WIPE_START
G1 F7200
G1 X47.505 Y127.275 E-.18367
G1 X47.57 Y127.6 E-.18367
;WIPE_END
G1 E-.59266 F4200
G1 Z.4 F720
G1 X49.902 Y140.368 F9000
G1 Z.2 F720
G1 E3.2 F2400
M204 P600
;TYPE:External perimeter
;WIDTH:0.419999
G1 F1200
G3 X49.689 Y140.208 I-.001 J-.219 E.00897
G1 X47.678 Y125.897 E.45312
G3 X47.84 Y125.693 I.221 J.009 E.00873
G1 X62.142 Y123.683 E.45284
G3 X62.355 Y123.844 I-.002 J.224 E.00897
G1 X64.364 Y138.146 E.45283
G3 X64.204 Y138.359 I-.223 J-.002 E.00895
G1 X49.961 Y140.36 E.45096
M204 P1000
G1 E-2.24 F4200
;WIPE_START
G1 F7200
G1 X49.902 Y140.368 E-.033
G3 X49.689 Y140.208 I-.001 J-.22 E-.1586
G1 X49.496 Y138.835 E-.7684
;WIPE_END
G1 Z.4 F720
G1 X44.186 Y128.407 F9000
G1 Z.2 F720
G1 E3.2 F2400
M204 P600
;TYPE:Perimeter
;WIDTH:0.410954
G1 F1200
G1 X44.135 Y128.151 E.00799
;WIDTH:0.381972
G1 X44.085 Y127.895 E.00735
;WIDTH:0.372484
G1 X44.065 Y127.683 E.00584
M204 P1000
G1 E-2.24 F4200
;WIPE_START
G1 F7200
G1 X44.085 Y127.895 E-.118
G1 X44.135 Y128.151 E-.14455
G1 X44.186 Y128.407 E-.14465
;WIPE_END
G1 E-.5528 F4200
G1 Z.4 F720
G1 X61.956 Y119.715 F9000
G1 Z.2 F720
G1 E3.2 F2400
M204 P600
;WIDTH:0.419999
G1 F1200
G1 X61.933 Y119.757 E.0015
G3 X61.612 Y119.917 I-.456 J-.515 E.01138
G1 X47.31 Y121.927 E.45284
G1 X47.001 Y121.884 E.00978
G3 X46.671 Y121.445 I.265 J-.543 E.01788
G1 X44.661 Y107.143 E.45284
G3 X45.143 Y106.504 I.585 J-.06 E.02761
G1 X59.446 Y104.494 E.45287
G1 X59.647 Y104.502 E.00631
G1 X59.925 Y104.655 E.00995
G3 X60.084 Y104.976 I-.51 J.454 E.01136
G1 X62.094 Y119.278 E.45284
G1 X62.089 Y119.464 E.00583
G1 X61.984 Y119.662 E.00703
M204 P1000
G1 X61.984 Y119.662 F9000
G1 X61.659 Y119.483
M204 P600
;TYPE:External perimeter
G1 F1200
G3 X61.56 Y119.543 I-.162 J-.155 E.00367
G1 X47.258 Y121.554 E.45284
G3 X47.045 Y121.393 I-.001 J-.221 E.00899
G1 X45.035 Y107.091 E.45284
G3 X45.195 Y106.878 I.219 J-.002 E.00897
G1 X59.498 Y104.868 E.45287
G3 X59.711 Y105.028 I-.002 J.224 E.00895
G1 X61.721 Y119.33 E.45284
G3 X61.694 Y119.434 I-.224 J-.002 E.0034
M204 P1000
G1 E-2.24 F4200
;WIPE_START
G1 F7200
G1 X61.659 Y119.483 E-.03337
G3 X61.56 Y119.543 I-.161 J-.155 E-.06489
G1 X60.02 Y119.76 E-.86174
;WIPE_END
G1 Z.4 F720
G1 X25.87 Y109.537 F9000
G1 Z.2 F720
G1 E3.2 F2400
M204 P600
;TYPE:Perimeter
G1 F1200
G3 X26.279 Y109.158 I.595 J.232 E.01809
G1 X40.63 Y107.139 E.4544
G3 X41.269 Y107.62 I.061 J.584 E.02758
G1 X43.279 Y121.922 E.45284
G3 X43.125 Y122.394 I-.684 J.039 E.01593
G3 X42.797 Y122.561 I-.463 J-.505 E.01168
G1 X28.495 Y124.571 E.45284
G1 X28.204 Y124.535 E.00919
G3 X27.857 Y124.09 I.289 J-.584 E.0183
G1 X25.846 Y109.788 E.45284
G1 X25.856 Y109.594 E.00609
M204 P1000
G1 X25.856 Y109.594 F9000
G1 X26.364 Y109.525
M204 P600
;TYPE:External perimeter
G1 F1200
G1 X40.683 Y107.512 E.45338
G3 X40.896 Y107.673 I.001 J.22 E.009
G1 X42.905 Y121.975 E.45283
G3 X42.745 Y122.188 I-.222 J-.001 E.00895
G1 X28.443 Y124.198 E.45284
G3 X28.23 Y124.037 I-.001 J-.221 E.00899
G1 X26.219 Y109.735 E.45284
G3 X26.311 Y109.553 I.221 J-.003 E.00665
M204 P1000
G1 E-2.24 F4200
;WIPE_START
G1 F7200
G1 X26.364 Y109.525 E-.03322
G1 X28.02 Y109.292 E-.92678
;WIPE_END
G1 Z.4 F720
G1 X38.398 Y88.433 F9000
G1 Z.2 F720
G1 E3.2 F2400
M204 P600
;TYPE:Perimeter
G1 F1200
G3 X38.624 Y88.805 I-.378 J.484 E.01395
G1 X40.634 Y103.107 E.45284
G3 X40.153 Y103.746 I-.584 J.06 E.02758
M73 P0 R260
M73 Q0 S260
G1 X25.851 Y105.756 E.45284
G1 X25.692 Y105.756 E.00499
G1 X25.409 Y105.63 E.00971
G3 X25.212 Y105.275 I.641 J-.588 E.01285
