; generated by PrusaSlicer 2.7.4 on 2024-05-11 at 22:30:02 UTC


;
;

;
;

;
;

;
;
; 

; external perimeters extrusion width = 0.45mm
; perimeters extrusion width = 0.45mm
; infill extrusion width = 0.45mm
; solid infill extrusion width = 0.45mm
; top infill extrusion width = 0.40mm
; first layer extrusion width = 0.42mm

M73 P0 R234
M73 Q0 S234
M201 X2500 Y2500 Z400 E5000 ; sets maximum accelerations, mm/sec^2
M203 X180 Y180 Z12 E80 ; sets maximum feedrates, mm / sec
M204 P2000 R1250 T2500 ; sets acceleration (P, T) and retract acceleration (R), mm/sec^2
M205 X8.00 Y8.00 Z2.00 E10.00 ; sets the jerk limits, mm/sec
M205 S0 T0 ; sets the minimum extruding and travel feed rate, mm/sec

M486 S0
M486 Acase_hipro_mx_bottom.stl
M486 S-1

;TYPE:Custom
M862.3 P "MINI" ; printer model check
G90 ; use absolute coordinates
M83 ; extruder relative mode
M104 S170 ; set extruder temp for bed leveling
M140 S60 ; set bed temp
M109 R170 ; wait for bed leveling temp
M190 S60 ; wait for bed temp
M204 T1250 ; set travel acceleration
G28 ; home all without mesh bed level
G29 ; mesh bed leveling 
M204 T2500 ; restore travel acceleration
M104 S215 ; set extruder temp
G92 E0
G1 Y-2 X179 F2400
G1 Z3 F720
M109 S215 ; wait for extruder temp

; intro line
G1 X170 F1000
G1 Z0.2 F720
G1 X110 E8 F900
G1 X40 E10 F700
G92 E0

M221 S95 ; set flow
G21 ; set units to millimeters
G90 ; use absolute coordinates
M83 ; use relative distances for extrusion

M900 K0.2 ; Filament gcode LA 1.5
; ; Filament gcode LA 1.0




M107
;LAYER_CHANGE
;Z:0.2
;HEIGHT:0.2
G1 E-3.2 F4200
G1 Z.4 F720
G1 X15.842 Y19.841 F9000
G1 Z.2 F720
G1 E3.2 F2400
M204 P600
;TYPE:Skirt/Brim
;WIDTH:0.42
G1 F1200
G1 X16.782 Y19.647 E.03009
G1 X85.449 Y19.647 E2.15301
G3 X92.157 Y21.637 I-.172 J12.883 E.22217
G1 X146.542 Y59.885 E2.08468
G3 X148.592 Y61.989 I-9.729 J11.536 E.09225
G1 X163.123 Y81.27 E.757
G3 X165.531 Y89.947 I-10.153 J7.491 E.28871
G1 X157.749 Y145.309 E1.7529
G3 X147.317 Y155.335 I-12.228 J-2.283 E.48415
G1 X111.705 Y159.982 E1.12606
G1 X91.199 Y160.328 E.64304
G1 X67.763 Y157.049 E.74198
G1 X16.257 Y145.402 E1.65571
G1 X15.069 Y144.731 E.04278
G1 X14.405 Y143.083 E.05571
G1 X14.405 Y22.024 E3.79572
G1 X14.796 Y20.717 E.04277
G1 X15.796 Y19.88 E.04089
M204 P1000
G1 E-2.24 F4200
;WIPE_START
G1 F7200
G1 X15.842 Y19.841 E-.03342
G1 X16.782 Y19.647 E-.53189
G1 X17.494 Y19.647 E-.39469
;WIPE_END
G1 Z.4 F720
M486 S0
G1 X17.569 Y142.296 F9000
G1 Z.2 F720
G1 E3.2 F2400
M204 P600
;TYPE:Perimeter
;WIDTH:0.419999
G1 F1200
G1 X17.569 Y22.811 E3.74636
G1 X85.415 Y22.812 E2.12726
G3 X90.735 Y24.494 I-.021 J9.318 E.17767
M73 P0 R233
M73 Q0 S233
G1 X144.056 Y61.973 E2.04352
G3 X146.076 Y63.906 I-5.587 J7.856 E.08797
G1 X160.624 Y83.231 E.75842
G3 X162.412 Y88.171 I-7.405 J5.475 E.16704
G1 X162.428 Y88.501 E.01036
G1 X162.351 Y89.902 E.04399
G1 X154.655 Y144.632 E1.7329
G3 X146.758 Y152.218 I-9.098 J-1.568 E.36754
G1 X111.739 Y156.795 E1.10733
G3 X110.684 Y156.872 I-1.35 J-11.116 E.03318
G1 X92.052 Y157.188 E.58428
G3 X90.779 Y157.11 I.055 J-11.293 E.04001
G1 X68.847 Y154.028 E.69442
G3 X67.399 Y153.69 I1.941 J-11.588 E.04665
G1 X32.724 Y142.619 E1.14128
G1 X31.624 Y142.296 E.03595
G1 X17.629 Y142.296 E.4388
M204 P1000
G1 X17.192 Y142.673 F9000
M204 P600
;TYPE:External perimeter
G1 F1200
G1 X17.192 Y22.434 E3.77
G1 X85.422 Y22.434 E2.1393
G3 X90.946 Y24.181 I-.027 J9.693 E.18448
G1 X144.278 Y61.668 E2.04395
G3 X146.371 Y63.672 I-5.804 J8.155 E.09118
G1 X160.925 Y83.004 E.75871
G3 X162.789 Y88.152 I-7.709 J5.702 E.17409
G1 X162.806 Y88.502 E.01099
G1 X162.726 Y89.939 E.04513
G1 X155.027 Y144.698 E1.73381
G3 X146.812 Y152.591 I-9.47 J-1.634 E.38234
G1 X111.783 Y157.169 E1.10765
G3 X110.696 Y157.249 I-1.391 J-11.453 E.03419
G1 X92.05 Y157.566 E.58472
G3 X90.734 Y157.485 I.057 J-11.669 E.04136
G1 X68.784 Y154.4 E.69499
G3 X67.289 Y154.051 I2 J-11.936 E.04817
G1 X31.624 Y142.673 E1.17378
G1 X17.252 Y142.673 E.45062
M204 P1000
G1 E-2.24 F4200
;WIPE_START
G1 F7200
G1 X17.192 Y142.673 E-.03325
G1 X17.192 Y141.001 E-.92675
;WIPE_END
G1 Z.4 F720
G1 X124.222 Y82.371 F9000
G1 Z.2 F720
G1 E3.2 F2400
M204 P600
;TYPE:Perimeter
G1 F1200
G1 X124.466 Y83.131 E.02503
G3 X124.292 Y85.336 I-4.202 J.777 E.07015
G1 X123.905 Y86.099 E.02682
G3 X122.235 Y87.548 I-3.54 J-2.393 E.07012
G1 X121.423 Y87.821 E.02686
G1 X120.677 Y87.914 E.02357
G3 X118.544 Y87.367 I-.037 J-4.285 E.06983
G1 X117.856 Y86.855 E.02689
G1 X117.355 Y86.295 E.02356
G1 X116.924 Y85.555 E.02685
G3 X116.579 Y83.992 I4.236 J-1.756 E.05044
G1 X116.659 Y83.13 E.02714
G1 X116.878 Y82.411 E.02357
G1 X117.254 Y81.705 E.02508
G3 X118.248 Y80.686 I4 J2.906 E.04479
G1 X118.995 Y80.267 E.02685
G3 X121.19 Y79.995 I1.606 J3.969 E.07014
G1 X122.016 Y80.22 E.02684
G3 X123.77 Y81.565 I-1.647 J3.965 E.07009
G1 X124.201 Y82.307 E.0269
G1 X124.203 Y82.314 E.00023
M204 P1000
G1 X124.203 Y82.314 F9000
G1 X123.863 Y82.476
M204 P600
;TYPE:External perimeter
G1 F1200
G1 X123.872 Y82.492 E.00058
G1 X124.105 Y83.241 E.02459
G3 X123.929 Y85.231 I-3.819 J.665 E.06335
G1 X123.571 Y85.924 E.02446
G3 X122.05 Y87.219 I-3.189 J-2.203 E.06335
G1 X121.308 Y87.462 E.02448
G3 X118.709 Y87.027 I-.721 J-3.681 E.08442
G1 X118.086 Y86.555 E.02451
G1 X117.64 Y86.047 E.0212
G1 X117.252 Y85.369 E.02449
G3 X116.954 Y83.951 I3.961 J-1.575 E.04565
G1 X117.034 Y83.171 E.02458
G3 X117.566 Y81.918 I4.219 J1.051 E.04286
G3 X118.491 Y80.974 I3.588 J2.594 E.04159
G1 X119.175 Y80.598 E.02447
G3 X121.161 Y80.371 I1.42 J3.616 E.06339
G1 X121.912 Y80.583 E.02447
G3 X123.486 Y81.813 I-1.533 J3.583 E.06334
G1 X123.833 Y82.423 E.022
M204 P1000
G1 E-2.24 F4200
;WIPE_START
G1 F7200
G1 X123.863 Y82.476 E-.03375
G1 X123.872 Y82.492 E-.01017
G1 X124.105 Y83.241 E-.43469
G3 X124.157 Y84.106 I-3.819 J.666 E-.48139
;WIPE_END
G1 Z.4 F720
G1 X133.186 Y131.386 F9000
G1 Z.2 F720
G1 E3.2 F2400
M204 P600
;TYPE:Perimeter
G1 F1200
G1 X132.53 Y131.596 E.0216
G3 X130.333 Y131.455 I-.832 J-4.212 E.06981
G1 X129.562 Y131.079 E.0269
G1 X128.965 Y130.622 E.02357
G1 X128.47 Y130.067 E.02332
G1 X128.04 Y129.326 E.02686
G1 X127.799 Y128.616 E.02351
G3 X127.91 Y126.406 I4.194 J-.897 E.07017
G1 X128.211 Y125.739 E.02294
G1 X128.712 Y125.043 E.02689
G1 X129.264 Y124.532 E.02359
G1 X129.999 Y124.09 E.02689
G1 X130.706 Y123.839 E.02352
G1 X131.556 Y123.721 E.02691
G1 X132.304 Y123.767 E.0235
G1 X133.132 Y123.993 E.02691
G1 X133.803 Y124.332 E.02357
G1 X134.474 Y124.864 E.02685
G1 X134.958 Y125.439 E.02357
G1 X135.366 Y126.193 E.02688
G1 X135.585 Y126.912 E.02357
G3 X135.408 Y129.108 I-4.217 J.766 E.06986
G1 X135.021 Y129.872 E.02685
G3 X133.994 Y130.947 I-3.961 J-2.755 E.0468
G1 X133.246 Y131.367 E.0269
G1 X133.243 Y131.368 E.0001
M204 P1000
G1 X133.243 Y131.368 F9000
G1 X133.085 Y131.025
M204 P600
;TYPE:External perimeter
G1 F1200
G1 X133.066 Y131.036 E.00069
G3 X130.431 Y131.091 I-1.391 J-3.492 E.08443
G1 X129.732 Y130.742 E.0245
G3 X128.755 Y129.82 I2.45 J-3.573 E.04229
G1 X128.368 Y129.141 E.0245
G3 X128.274 Y126.505 I3.454 J-1.443 E.08452
G1 X128.553 Y125.897 E.02097
G1 X129.015 Y125.267 E.0245
G1 X129.516 Y124.813 E.0212
G1 X130.189 Y124.416 E.0245
G1 X130.827 Y124.196 E.02116
G1 X131.603 Y124.095 E.02454
G1 X132.275 Y124.143 E.02112
G1 X133.027 Y124.356 E.02451
G1 X133.628 Y124.666 E.0212
G1 X134.236 Y125.156 E.02448
G1 X134.666 Y125.678 E.0212
G1 X135.031 Y126.367 E.02445
G3 X135.045 Y129.004 I-3.498 J1.337 E.08449
G1 X134.687 Y129.697 E.02446
G3 X133.751 Y130.659 I-3.575 J-2.543 E.04225
G1 X133.137 Y130.996 E.02196
M204 P1000
G1 E-2.24 F4200
;WIPE_START
G1 F7200
G1 X133.085 Y131.025 E-.033
G1 X133.066 Y131.036 E-.01217
G3 X131.449 Y131.296 I-1.39 J-3.492 E-.91483
;WIPE_END
G1 Z.4 F720
G1 X58.749 Y121.842 F9000
G1 Z.2 F720
G1 E3.2 F2400
M204 P600
;TYPE:Perimeter
G1 F1200
G1 X59.086 Y122.441 E.02155
G3 X59.389 Y124.624 I-3.958 J1.661 E.06989
G1 X59.176 Y125.453 E.02684
G3 X58.404 Y126.726 I-4.449 J-1.827 E.04687
G1 X57.766 Y127.296 E.02682
G1 X57.116 Y127.675 E.02359
G1 X56.304 Y127.949 E.02687
G1 X55.557 Y128.042 E.0236
G1 X54.705 Y127.974 E.0268
G3 X52.73 Y126.976 I.874 J-4.186 E.07018
G1 X52.17 Y126.329 E.02683
G3 X51.565 Y124.97 I4.032 J-2.61 E.04683
G1 X51.547 Y124.9 E.00227
G3 X51.499 Y123.492 I4.825 J-.869 E.04433
G1 X51.712 Y122.663 E.02684
G3 X52.484 Y121.39 I4.449 J1.827 E.04687
G1 X53.122 Y120.82 E.02682
G1 X53.772 Y120.441 E.02359
G1 X54.584 Y120.167 E.02687
G1 X55.331 Y120.075 E.0236
G1 X56.183 Y120.142 E.0268
G3 X58.158 Y121.14 I-.874 J4.186 E.07018
G1 X58.718 Y121.787 E.02683
G1 X58.72 Y121.79 E.00011
M204 P1000
G1 X58.72 Y121.79 F9000
G1 X58.416 Y122.014
M204 P600
;TYPE:External perimeter
G1 F1200
G1 X58.43 Y122.03 E.00067
G3 X59.013 Y124.6 I-3.135 J2.062 E.08443
G1 X58.812 Y125.354 E.02447
G3 X58.105 Y126.497 I-4.025 J-1.702 E.04231
G1 X57.518 Y127.011 E.02446
G1 X56.931 Y127.347 E.02121
G1 X56.189 Y127.59 E.02448
G1 X55.517 Y127.667 E.02121
G1 X54.74 Y127.598 E.02446
G3 X52.964 Y126.681 I.833 J-3.788 E.06338
G1 X52.458 Y126.086 E.02449
G3 X51.918 Y124.831 I3.688 J-2.333 E.04301
G3 X51.875 Y123.516 I4.315 J-.797 E.04141
G1 X52.076 Y122.762 E.02447
G3 X52.783 Y121.619 I4.026 J1.702 E.04231
G1 X53.37 Y121.105 E.02446
G1 X53.957 Y120.769 E.02121
G1 X54.699 Y120.526 E.02448
G1 X55.371 Y120.449 E.02121
G1 X56.148 Y120.518 E.02446
G3 X57.924 Y121.436 I-.833 J3.788 E.0634
G1 X58.377 Y121.968 E.02191
M204 P1000
G1 E-2.24 F4200
;WIPE_START
G1 F7200
G1 X58.416 Y122.014 E-.03342
G1 X58.43 Y122.03 E-.01178
G3 X59.01 Y123.562 I-3.135 J2.062 E-.9148
;WIPE_END
G1 Z.4 F720
G1 X62.446 Y64.652 F9000
G1 Z.2 F720
G1 E3.2 F2400
M204 P600
;TYPE:Perimeter
G1 F1200
G3 X64.591 Y64.802 I.782 J4.208 E.06815
G1 X65.362 Y65.178 E.0269
G3 X66.453 Y66.189 I-2.898 J4.221 E.0468
G1 X66.883 Y66.929 E.02683
G3 X67.226 Y68.377 I-4.445 J1.819 E.04685
G3 X67.064 Y69.629 I-4.062 J.109 E.03974
G1 X66.974 Y69.962 E.01082
G3 X65.566 Y71.792 I-3.961 J-1.59 E.07331
G3 X64.217 Y72.418 I-2.7 J-4.05 E.04681
G1 X63.367 Y72.536 E.02691
G1 X62.505 Y72.469 E.02711
G3 X60.532 Y71.472 I.875 J-4.185 E.07011
G3 X59.395 Y69.586 I2.982 J-3.082 E.06983
G1 X59.265 Y68.739 E.02687
G1 X59.318 Y67.875 E.02714
G1 X59.515 Y67.149 E.02359
G1 X59.901 Y66.386 E.02681
G3 X61.572 Y64.937 I3.545 J2.399 E.07014
G1 X62.384 Y64.664 E.02686
G3 X62.387 Y64.663 I.844 J4.196 E.0001
M204 P1000
G1 X62.387 Y64.663 F9000
G1 X62.482 Y65.028
M204 P600
;TYPE:External perimeter
G1 F1200
G1 X62.499 Y65.022 E.00057
G3 X64.493 Y65.166 I.727 J3.816 E.0634
G1 X65.192 Y65.515 E.0245
G3 X66.168 Y66.437 I-2.726 J3.864 E.04224
G1 X66.554 Y67.114 E.02443
G3 X66.813 Y69.096 I-3.584 J1.477 E.06339
G1 X66.612 Y69.855 E.02462
G3 X65.376 Y71.466 I-3.605 J-1.485 E.06441
G3 X64.096 Y72.061 I-2.471 J-3.642 E.04445
G1 X63.321 Y72.162 E.02451
G1 X62.54 Y72.093 E.02458
G1 X61.893 Y71.9 E.02117
G3 X59.75 Y69.46 I1.425 J-3.412 E.10542
G1 X59.638 Y68.686 E.02452
G1 X59.694 Y67.904 E.02458
G1 X59.877 Y67.254 E.02117
G1 X60.236 Y66.56 E.0245
G3 X61.757 Y65.265 I3.193 J2.211 E.06335
G1 X62.425 Y65.047 E.02203
M204 P1000
G1 E-2.24 F4200
;WIPE_START
G1 F7200
G1 X62.482 Y65.028 E-.0333
G1 X62.499 Y65.022 E-.00999
G3 X64.14 Y65.063 I.726 J3.815 E-.91671
;WIPE_END
G1 Z.4 F720
G1 X146.355 Y64.56 F9000
G1 Z.2 F720
G1 E3.2 F2400
M204 P600
;TYPE:Solid infill
;WIDTH:0.420203
G1 F1200
G1 X144.873 Y63.077 E.06577
G2 X143.857 Y62.247 I-7.37 J7.982 E.04118
G1 X142.686 Y61.424 E.0449
G1 X147.121 Y65.859 E.19676
G1 X148.746 Y68.018 E.08477
G1 X140.89 Y60.162 E.34854
G1 X139.094 Y58.9 E.06886
G1 X150.371 Y70.177 E.50031
G1 X151.996 Y72.335 E.08475
G1 X137.299 Y57.638 E.65204
G1 X135.503 Y56.375 E.06888
G1 X153.621 Y74.494 E.80384
G1 X155.246 Y76.652 E.08475
G1 X133.707 Y55.113 E.95559
G1 X131.911 Y53.851 E.06886
M73 P0 R232
M73 Q0 S232
G1 X156.871 Y78.811 E1.10737
G1 X158.496 Y80.97 E.08477
G1 X130.116 Y52.589 E1.25912
G1 X128.32 Y51.327 E.06886
G1 X160.121 Y83.128 E1.41087
G3 X161.12 Y84.661 I-6.915 J5.6 E.0575
G1 X126.524 Y50.064 E1.53489
G1 X124.728 Y48.802 E.06886
G1 X161.532 Y85.606 E1.63283
G1 X161.783 Y86.391 E.02585
G1 X122.932 Y47.54 E1.72365
G1 X121.137 Y46.278 E.06884
G1 X161.939 Y87.08 E1.8102
G1 X162.03 Y87.705 E.01981
G1 X119.341 Y45.016 E1.89392
G1 X117.545 Y43.753 E.06888
G1 X162.078 Y88.286 E1.97573
G3 X162.071 Y88.813 I-3.138 J.223 E.01655
G1 X115.749 Y42.491 E2.0551
G1 X113.954 Y41.229 E.06884
G1 X162.043 Y89.318 E2.1335
G1 X162.015 Y89.824 E.0159
M73 P1 R232
M73 Q1 S232
G1 X112.158 Y39.967 E2.21194
G1 X110.362 Y38.705 E.06886
G1 X161.953 Y90.295 E2.28884
G1 X161.887 Y90.763 E.01483
G1 X108.566 Y37.442 E2.36562
G1 X106.771 Y36.18 E.06884
G1 X161.821 Y91.231 E2.44235
G1 X161.756 Y91.699 E.01482
G1 X104.975 Y34.918 E2.51912
G1 X103.179 Y33.656 E.06886
G1 X161.69 Y92.166 E2.59585
G1 X161.624 Y92.634 E.01483
G1 X101.383 Y32.393 E2.67263
G1 X99.588 Y31.131 E.06884
G1 X161.558 Y93.102 E2.74936
G1 X161.492 Y93.57 E.01483
M73 P1 R231
M73 Q1 S231
G1 X97.792 Y29.869 E2.82611
G1 X95.996 Y28.607 E.06886
G1 X161.427 Y94.038 E2.90289
G1 X161.361 Y94.505 E.0148
G1 X94.2 Y27.345 E2.97962
G1 X92.404 Y26.082 E.06888
G1 X161.295 Y94.973 E3.05639
G1 X161.229 Y95.441 E.01483
G1 X90.609 Y24.82 E3.13312
G2 X89.302 Y24.047 I-5.535 J7.863 E.04769
G1 X161.164 Y95.909 E3.1882
G1 X161.098 Y96.376 E.0148
G1 X88.39 Y23.669 E3.22571
G2 X87.621 Y23.433 I-2.305 J6.151 E.02525
G1 X161.032 Y96.844 E3.25692
G1 X160.966 Y97.312 E.01483
G1 X86.942 Y23.287 E3.28414
G1 X86.322 Y23.201 E.01964
G1 X160.9 Y97.78 E3.30872
G1 X160.835 Y98.248 E.01482
G1 X85.752 Y23.164 E3.33112
G1 X85.204 Y23.151 E.0172
G1 X160.769 Y98.715 E3.35246
G1 X160.703 Y99.183 E.01483
M73 P1 R230
M73 Q1 S230
G1 X84.671 Y23.151 E3.3732
G1 X84.137 Y23.151 E.01675
G1 X160.637 Y99.651 E3.39397
G1 X160.572 Y100.119 E.01482
G1 X83.604 Y23.151 E3.41473
G1 X83.07 Y23.151 E.01675
G1 X160.506 Y100.586 E3.43547
G1 X160.44 Y101.054 E.01483
G1 X82.537 Y23.151 E3.45621
G1 X82.003 Y23.151 E.01675
G1 X160.374 Y101.522 E3.47698
G1 X160.308 Y101.99 E.01483
G1 X81.47 Y23.151 E3.49772
G1 X80.936 Y23.151 E.01675
G1 X160.243 Y102.458 E3.5185
G1 X160.177 Y102.925 E.0148
G1 X80.402 Y23.151 E3.53924
G1 X79.869 Y23.151 E.01672
M73 P2 R230
M73 Q2 S230
G1 X160.111 Y103.393 E3.55998
G1 X160.045 Y103.861 E.01483
M73 P2 R229
M73 Q2 S229
G1 X79.335 Y23.151 E3.58075
G1 X78.802 Y23.151 E.01672
G1 X159.98 Y104.329 E3.60151
G1 X159.914 Y104.797 E.01483
G1 X78.268 Y23.151 E3.62227
G1 X77.735 Y23.151 E.01672
G1 X159.848 Y105.264 E3.64299
G1 X159.782 Y105.732 E.01483
G1 X77.201 Y23.151 E3.66375
G1 X76.667 Y23.151 E.01675
G1 X159.716 Y106.2 E3.68452
G1 X159.651 Y106.668 E.01482
G1 X76.134 Y23.151 E3.70528
G1 X75.6 Y23.151 E.01675
G1 X159.585 Y107.135 E3.72602
G1 X159.519 Y107.603 E.01483
G1 X75.067 Y23.151 E3.74676
G1 X74.533 Y23.151 E.01675
G1 X159.453 Y108.071 E3.76753
G1 X159.388 Y108.539 E.01482
G1 X74 Y23.151 E3.78829
G1 X73.466 Y23.151 E.01675
M73 P2 R228
M73 Q2 S228
G1 X159.322 Y109.007 E3.80905
G1 X159.256 Y109.474 E.0148
G1 X72.933 Y23.151 E3.82977
G1 X72.399 Y23.151 E.01675
G1 X159.19 Y109.942 E3.85053
G1 X159.124 Y110.41 E.01483
G1 X71.865 Y23.151 E3.8713
G1 X71.332 Y23.151 E.01672
G1 X159.059 Y110.878 E3.89206
G1 X158.993 Y111.345 E.0148
G1 X70.798 Y23.151 E3.9128
G1 X70.265 Y23.151 E.01672
G1 X158.927 Y111.813 E3.93354
G1 X158.861 Y112.281 E.01483
G1 X69.731 Y23.151 E3.95431
G1 X69.198 Y23.151 E.01672
G1 X158.796 Y112.749 E3.97507
G1 X158.73 Y113.217 E.01483
M73 P2 R227
M73 Q2 S227
G1 X68.664 Y23.151 E3.99583
G1 X68.131 Y23.151 E.01672
G1 X158.664 Y113.684 E4.01655
G1 X158.598 Y114.152 E.01483
M73 P3 R227
M73 Q3 S227
G1 X67.597 Y23.151 E4.03731
G1 X67.063 Y23.151 E.01675
G1 X158.533 Y114.62 E4.0581
G1 X158.467 Y115.088 E.01483
G1 X66.53 Y23.151 E4.07884
G1 X65.996 Y23.151 E.01675
G1 X158.401 Y115.556 E4.0996
G1 X158.335 Y116.023 E.0148
G1 X124.541 Y82.229 E1.49929
G1 X124.101 Y81.44 E.02834
G1 X123.563 Y80.813 E.02592
G1 X122.937 Y80.314 E.02511
G1 X122.278 Y79.966 E.02338
G1 X65.463 Y23.151 E2.52063
G1 X64.929 Y23.151 E.01675
G1 X121.502 Y79.724 E2.50989
G2 X120.881 Y79.636 I-.593 J1.957 E.01975
G1 X64.396 Y23.151 E2.50599
G1 X63.862 Y23.151 E.01675
G1 X120.331 Y79.619 E2.50526
