; generated by PrusaSlicer 2.7.4 on 2024-05-11 at 22:30:37 UTC


;
;

;
;

;
;

;
;
; 

; external perimeters extrusion width = 0.45mm
; perimeters extrusion width = 0.45mm
; infill extrusion width = 0.45mm
; solid infill extrusion width = 0.45mm
; top infill extrusion width = 0.40mm
; first layer extrusion width = 0.42mm

M73 P0 R236
M73 Q0 S236
M201 X2500 Y2500 Z400 E5000 ; sets maximum accelerations, mm/sec^2
M203 X180 Y180 Z12 E80 ; sets maximum feedrates, mm / sec
M204 P2000 R1250 T2500 ; sets acceleration (P, T) and retract acceleration (R), mm/sec^2
M205 X8.00 Y8.00 Z2.00 E10.00 ; sets the jerk limits, mm/sec
M205 S0 T0 ; sets the minimum extruding and travel feed rate, mm/sec

M486 S0
M486 Acase_hipro_mx_bottom.stl
M486 S-1

;TYPE:Custom
M862.3 P "MINI" ; printer model check
G90 ; use absolute coordinates
M83 ; extruder relative mode
M104 S170 ; set extruder temp for bed leveling
M140 S60 ; set bed temp
M109 R170 ; wait for bed leveling temp
M190 S60 ; wait for bed temp
M204 T1250 ; set travel acceleration
G28 ; home all without mesh bed level
G29 ; mesh bed leveling 
M204 T2500 ; restore travel acceleration
M104 S215 ; set extruder temp
G92 E0
G1 Y-2 X179 F2400
G1 Z3 F720
M109 S215 ; wait for extruder temp

; intro line
G1 X170 F1000
G1 Z0.2 F720
G1 X110 E8 F900
G1 X40 E10 F700
G92 E0

M221 S95 ; set flow
G21 ; set units to millimeters
G90 ; use absolute coordinates
M83 ; use relative distances for extrusion

M900 K0.2 ; Filament gcode LA 1.5
; ; Filament gcode LA 1.0




M107
;LAYER_CHANGE
;Z:0.2
;HEIGHT:0.2
G1 E-3.2 F4200
G1 Z.4 F720
G1 X39.136 Y55.68 F9000
G1 Z.2 F720
G1 E3.2 F2400
M204 P600
;TYPE:Skirt/Brim
;WIDTH:0.42
G1 F1200
G1 X87.22 Y21.883 E1.8428
G3 X94.316 Y19.647 I7.256 J10.648 E.23664
M73 P0 R235
M73 Q0 S235
G1 X163.469 Y19.647 E2.16824
G1 X164.777 Y20.039 E.04281
G1 X165.653 Y21.085 E.04278
G1 X165.847 Y22.024 E.03006
G1 X165.847 Y143.083 E3.79572
G1 X165.455 Y144.39 E.04278
G1 X163.989 Y145.403 E.05587
G1 X112.003 Y157.044 E1.67035
G1 X88.495 Y160.331 E.74425
G1 X68.087 Y159.987 E.63997
G1 X32.543 Y155.351 E1.1239
G3 X21.969 Y145.167 I1.716 J-12.363 E.49209
G1 X14.255 Y90.315 E1.73677
G3 X16.27 Y81.763 I12.496 J-1.569 E.2814
G1 X31.167 Y61.967 E.7768
G3 X33.859 Y59.389 I11.654 J9.477 E.11717
G1 X39.087 Y55.715 E.20035
M204 P1000
G1 E-2.24 F4200
;WIPE_START
G1 F7200
G1 X39.136 Y55.68 E-.03337
G1 X40.504 Y54.718 E-.92663
;WIPE_END
G1 Z.4 F720
M486 S0
G1 X162.682 Y142.296 F9000
G1 Z.2 F720
G1 E3.2 F2400
M204 P600
;TYPE:Perimeter
;WIDTH:0.419999
G1 F1200
G1 X148.118 Y142.296 E.45664
G1 X147.946 Y142.323 E.00546
G1 X112.344 Y153.69 E1.17179
G3 X110.895 Y154.028 I-3.41 J-11.34 E.04668
G1 X88.963 Y157.11 E.69442
G3 X87.689 Y157.188 I-1.35 J-11.595 E.04004
G1 X69.062 Y156.872 E.58412
G1 X68.357 Y156.834 E.02214
G1 X32.984 Y152.218 E1.1185
G3 X25.122 Y144.82 I1.197 J-9.149 E.36156
G1 X17.379 Y89.804 E1.74199
G3 X17.328 Y88.15 I12.285 J-1.206 E.05192
G3 X19.115 Y83.218 I9.307 J.581 E.16673
G1 X33.669 Y63.904 E.75826
G1 X34.006 Y63.492 E.01669
G1 X34.974 Y62.527 E.04286
G1 X35.691 Y61.969 E.02849
G1 X89.006 Y24.496 E2.04326
G3 X90.26 Y23.753 I6.584 J9.691 E.04573
G1 X91.546 Y23.239 E.04342
G3 X94.143 Y22.813 I2.896 J9.534 E.08276
G1 X162.682 Y22.812 E2.14899
G1 X162.682 Y48.087 E.79248
G1 X162.682 Y142.236 E2.95197
M204 P1000
G1 X162.682 Y142.236 F9000
G1 X163.06 Y142.673
M204 P600
;TYPE:External perimeter
G1 F1200
G1 X148.061 Y142.682 E.47028
G1 X112.454 Y154.051 E1.17196
G3 X110.959 Y154.4 I-3.516 J-11.679 E.04817
G1 X89.008 Y157.485 E.69502
G3 X87.692 Y157.566 I-1.395 J-11.971 E.04136
G1 X69.048 Y157.249 E.58465
G1 X68.323 Y157.21 E.02276
G1 X32.93 Y152.591 E1.11913
G3 X24.75 Y144.888 I1.251 J-9.522 E.37631
G1 X17.004 Y89.842 E1.74293
G3 X16.952 Y88.126 I12.658 J-1.243 E.05387
M73 P0 R234
M73 Q0 S234
G3 X18.809 Y82.997 I9.683 J.605 E.17337
G1 X33.373 Y63.671 E.75875
G1 X33.726 Y63.238 E.01752
G1 X34.725 Y62.244 E.04419
G1 X35.467 Y61.666 E.02949
G1 X88.797 Y24.182 E2.04384
G3 X90.102 Y23.41 I6.798 J10.012 E.04757
G1 X91.427 Y22.881 E.04473
G3 X94.13 Y22.436 I3.018 J9.917 E.08614
G1 X163.06 Y22.434 E2.16125
G1 X163.06 Y48.087 E.80433
G1 X163.06 Y142.613 E2.96379
M204 P1000
G1 E-2.24 F4200
;WIPE_START
G1 F7200
G1 X163.06 Y142.673 E-.03325
G1 X161.388 Y142.674 E-.92675
;WIPE_END
G1 Z.4 F720
G1 X118.857 Y71.757 F9000
G1 Z.2 F720
G1 E3.2 F2400
M204 P600
;TYPE:Perimeter
G1 F1200
G1 X118.178 Y72.166 E.02485
G1 X117.47 Y72.418 E.02356
G1 X116.621 Y72.536 E.02688
G1 X115.871 Y72.489 E.02356
G1 X115.045 Y72.263 E.02685
G3 X113.785 Y71.472 I1.885 J-4.401 E.04684
G3 X112.649 Y69.586 I2.983 J-3.082 E.06981
G1 X112.518 Y68.739 E.02687
G1 X112.571 Y67.875 E.02714
G1 X112.769 Y67.148 E.02362
G1 X113.155 Y66.386 E.02678
G1 X113.644 Y65.77 E.02466
G3 X114.825 Y64.937 I3.39 J3.554 E.04548
G1 X115.637 Y64.664 E.02686
G3 X117.844 Y64.802 I.844 J4.196 E.07013
G1 X118.615 Y65.178 E.0269
G1 X119.211 Y65.634 E.02353
G1 X119.706 Y66.189 E.02332
G1 X120.136 Y66.929 E.02683
G3 X120.443 Y69.119 I-3.935 J1.668 E.07013
G1 X120.231 Y69.949 E.02686
G3 X118.912 Y71.724 I-3.983 J-1.58 E.07013
G1 X118.908 Y71.727 E.00016
M204 P1000
G1 X118.908 Y71.727 F9000
G1 X118.648 Y71.451
M204 P600
;TYPE:External perimeter
G1 F1200
G1 X117.988 Y71.841 E.02404
G1 X117.349 Y72.061 E.02119
G1 X116.574 Y72.161 E.0245
G1 X115.9 Y72.113 E.02119
G1 X115.149 Y71.901 E.02447
G3 X113.004 Y69.46 I1.421 J-3.412 E.10549
G1 X112.891 Y68.686 E.02453
G1 X112.947 Y67.904 E.02458
G1 X113.131 Y67.253 E.02121
G1 X113.489 Y66.56 E.02446
G1 X113.921 Y66.026 E.02154
G3 X115.01 Y65.265 I3.038 J3.193 E.04181
G1 X115.752 Y65.023 E.02447
G3 X117.746 Y65.166 I.727 J3.815 E.06339
G1 X118.445 Y65.515 E.0245
G3 X119.421 Y66.437 I-2.451 J3.573 E.04227
G1 X119.807 Y67.114 E.02443
G3 X120.067 Y69.096 I-3.584 J1.477 E.06339
G1 X119.867 Y69.85 E.02446
G3 X118.696 Y71.415 I-3.6 J-1.472 E.06195
M204 P1000
G1 E-2.24 F4200
;WIPE_START
G1 F7200
G1 X118.648 Y71.451 E-.03325
G1 X117.988 Y71.841 E-.42483
G1 X117.349 Y72.061 E-.37451
G1 X117.121 Y72.091 E-.12741
;WIPE_END
G1 Z.4 F720
G1 X56.921 Y80.655 F9000
G1 Z.2 F720
G1 E3.2 F2400
M204 P600
;TYPE:Perimeter
G1 F1200
G1 X57.613 Y80.267 E.02487
G3 X59.808 Y79.995 I1.605 J3.969 E.07014
G1 X60.656 Y80.227 E.02757
G3 X62.388 Y81.565 I-1.692 J3.98 E.06938
G1 X62.818 Y82.307 E.02689
G1 X63.083 Y83.131 E.02714
G3 X62.909 Y85.336 I-4.201 J.777 E.07015
G1 X62.523 Y86.099 E.02681
G3 X60.853 Y87.548 I-3.541 J-2.394 E.07012
G1 X60.041 Y87.821 E.02686
G3 X58.555 Y87.866 I-.889 J-4.745 E.0468
G1 X57.727 Y87.64 E.02691
G1 X57.056 Y87.302 E.02356
G1 X56.385 Y86.77 E.02685
G3 X55.3 Y84.843 I3.069 J-2.996 E.07013
G1 X55.196 Y83.992 E.02688
G1 X55.277 Y83.13 E.02715
G1 X55.496 Y82.411 E.02357
G3 X56.866 Y80.686 I3.947 J1.728 E.06984
G1 X56.869 Y80.684 E.00011
M204 P1000
G1 X57.121 Y80.967 F9000
M204 P600
;TYPE:External perimeter
G1 F1200
G1 X57.793 Y80.598 E.02404
G3 X59.778 Y80.371 I1.419 J3.617 E.06336
G1 X60.537 Y80.585 E.02473
G3 X62.103 Y81.813 I-1.549 J3.589 E.06309
G1 X62.49 Y82.492 E.0245
G1 X62.723 Y83.241 E.02459
G3 X62.547 Y85.231 I-3.819 J.665 E.06335
G1 X62.189 Y85.924 E.02446
G3 X60.668 Y87.219 I-3.189 J-2.203 E.06335
G1 X59.925 Y87.462 E.02451
G3 X58.584 Y87.49 I-.763 J-4.324 E.04222
G1 X57.832 Y87.278 E.0245
G1 X57.231 Y86.968 E.0212
G1 X56.623 Y86.478 E.02448
G3 X55.659 Y84.727 I2.814 J-2.691 E.06338
G1 X55.571 Y83.951 E.02449
G1 X55.651 Y83.171 E.02458
G3 X57.072 Y81.001 I3.66 J.846 E.08304
M204 P1000
G1 E-2.24 F4200
;WIPE_START
G1 F7200
G1 X57.121 Y80.967 E-.03305
G1 X57.793 Y80.598 E-.42485
G3 X58.667 Y80.368 I1.419 J3.616 E-.5021
;WIPE_END
G1 Z.4 F720
G1 X47.155 Y123.83 F9000
G1 Z.2 F720
G1 E3.2 F2400
M204 P600
;TYPE:Perimeter
G1 F1200
G1 X47.941 Y123.721 E.02488
G1 X48.689 Y123.767 E.0235
G1 X49.517 Y123.993 E.02691
G1 X50.188 Y124.332 E.02357
G1 X50.859 Y124.864 E.02685
G3 X51.707 Y126.087 I-3.479 J3.317 E.04685
G1 X51.967 Y126.904 E.02688
G3 X51.989 Y128.391 I-4.727 J.813 E.04682
G1 X51.751 Y129.213 E.02683
G3 X50.379 Y130.948 I-3.937 J-1.705 E.07015
G1 X49.631 Y131.367 E.02688
G3 X47.436 Y131.639 I-1.605 J-3.969 E.07014
G1 X46.611 Y131.414 E.02681
G1 X45.88 Y131.038 E.02577
G3 X44.857 Y130.068 I2.83 J-4.012 E.04436
G1 X44.425 Y129.326 E.02692
G1 X44.161 Y128.503 E.0271
G3 X44.139 Y127.015 I4.728 J-.814 E.04685
G1 X44.377 Y126.193 E.02683
G3 X45.188 Y124.945 I4.386 J1.963 E.04686
G3 X47.091 Y123.839 I3.038 J3.037 E.06979
G1 X47.095 Y123.838 E.00013
M204 P1000
G1 X47.095 Y123.838 F9000
G1 X47.227 Y124.194
M204 P600
;TYPE:External perimeter
G1 F1200
G1 X47.988 Y124.095 E.02406
G1 X48.66 Y124.143 E.02112
G1 X49.413 Y124.356 E.02454
G1 X50.013 Y124.666 E.02118
G1 X50.621 Y125.156 E.02448
G3 X51.376 Y126.267 I-3.193 J2.981 E.04228
G1 X51.607 Y127.013 E.02449
G3 X51.614 Y128.356 I-4.302 J.695 E.04228
G1 X51.391 Y129.103 E.02444
G3 X50.136 Y130.66 I-3.558 J-1.585 E.06341
G1 X49.451 Y131.036 E.0245
G3 X47.466 Y131.263 I-1.419 J-3.617 E.06336
G1 X46.715 Y131.051 E.02447
G1 X46.095 Y130.729 E.02191
G3 X45.141 Y129.821 I2.519 J-3.603 E.04145
G1 X44.754 Y129.141 E.02453
G1 X44.521 Y128.393 E.02456
G3 X44.514 Y127.05 I4.302 J-.695 E.04228
G1 X44.738 Y126.302 E.02448
G3 X47.168 Y124.207 I3.389 J1.475 E.10406
M204 P1000
G1 E-2.24 F4200
;WIPE_START
G1 F7200
G1 X47.227 Y124.194 E-.03348
G1 X47.988 Y124.095 E-.42527
G1 X48.66 Y124.143 E-.37335
G1 X48.882 Y124.206 E-.1279
;WIPE_END
G1 Z.4 F720
G1 X120.504 Y125.174 F9000
G1 Z.2 F720
G1 E3.2 F2400
M204 P600
;TYPE:Perimeter
G1 F1200
G1 X120.373 Y124.747 E.014
G3 X120.569 Y122.654 I4.25 J-.657 E.06659
G1 X120.956 Y121.89 E.02685
G3 X122.626 Y120.441 I3.547 J2.4 E.07012
G1 X123.439 Y120.167 E.0269
G1 X124.184 Y120.075 E.02354
G1 X125.037 Y120.142 E.02683
G1 X125.76 Y120.35 E.02359
G3 X127.506 Y121.694 I-1.652 J3.955 E.06987
G1 X127.937 Y122.434 E.02685
G1 X128.178 Y123.147 E.0236
G1 X128.282 Y123.998 E.02688
G1 X128.202 Y124.858 E.02708
G3 X127.175 Y126.816 I-4.17 J-.94 E.07012
G3 X125.272 Y127.923 I-3.035 J-3.028 E.06981
G1 X124.421 Y128.041 E.02694
G1 X123.56 Y127.974 E.02708
G1 X122.837 Y127.766 E.02359
G3 X121.091 Y126.423 I1.657 J-3.962 E.06985
G1 X120.66 Y125.682 E.02688
G1 X120.522 Y125.231 E.01479
M204 P1000
G1 X120.522 Y125.231 F9000
G1 X120.762 Y124.754
M204 P600
;TYPE:External perimeter
G1 F1200
G1 X120.749 Y124.711 E.00141
G3 X120.932 Y122.758 I3.834 J-.625 E.06218
G1 X121.29 Y122.065 E.02446
G3 X122.811 Y120.769 I3.196 J2.211 E.06337
G1 X123.554 Y120.526 E.02451
G1 X124.225 Y120.449 E.02118
G1 X125.002 Y120.518 E.02446
G3 X127.222 Y121.941 I-.785 J3.667 E.08448
G1 X127.609 Y122.619 E.02448
G1 X127.819 Y123.262 E.02121
G1 X127.908 Y124.038 E.02449
G1 X127.827 Y124.817 E.02456
G1 X127.624 Y125.462 E.0212
G3 X125.151 Y127.566 I-3.392 J-1.482 E.10539
G1 X124.375 Y127.666 E.02453
G1 X123.595 Y127.598 E.02455
G3 X121.376 Y126.176 I.786 J-3.669 E.08444
G1 X120.989 Y125.497 E.0245
G1 X120.779 Y124.812 E.02246
M204 P1000
G1 E-2.24 F4200
;WIPE_START
G1 F7200
G1 X120.762 Y124.754 E-.03349
G1 X120.749 Y124.711 E-.02489
G3 X120.826 Y123.098 I3.835 J-.626 E-.90162
;WIPE_END
G1 Z.4 F720
G1 X162.513 Y23.745 F9000
G1 Z.2 F720
G1 E3.2 F2400
M204 P600
;TYPE:Solid infill
;WIDTH:0.420753
G1 F1200
G1 X161.919 Y23.151 E.02639
G1 X161.384 Y23.151 E.01681
G1 X162.343 Y24.11 E.04261
G1 X162.343 Y24.644 E.01678
G1 X160.85 Y23.151 E.06633
G1 X160.316 Y23.151 E.01678
G1 X162.343 Y25.178 E.09006
G1 X162.343 Y25.713 E.01681
G1 X159.781 Y23.151 E.11383
G1 X159.247 Y23.151 E.01678
G1 X162.343 Y26.247 E.13756
G1 X162.343 Y26.781 E.01678
G1 X158.713 Y23.151 E.16128
G1 X158.178 Y23.151 E.01681
G1 X162.343 Y27.316 E.18505
G1 X162.343 Y27.85 E.01678
G1 X157.644 Y23.151 E.20878
G1 X157.11 Y23.151 E.01678
G1 X162.343 Y28.384 E.2325
G1 X162.343 Y28.919 E.01681
G1 X156.575 Y23.151 E.25627
G1 X156.041 Y23.151 E.01678
G1 X162.343 Y29.453 E.28
G1 X162.343 Y29.987 E.01678
G1 X155.507 Y23.151 E.30373
G1 X154.972 Y23.151 E.01681
G1 X162.343 Y30.522 E.3275
G1 X162.343 Y31.056 E.01678
G1 X154.438 Y23.151 E.35122
G1 X153.904 Y23.151 E.01678
G1 X162.343 Y31.59 E.37495
G1 X162.343 Y32.125 E.01681
G1 X153.369 Y23.151 E.39872
G1 X152.835 Y23.151 E.01678
G1 X162.343 Y32.659 E.42244
G1 X162.343 Y33.193 E.01678
G1 X152.301 Y23.151 E.44617
G1 X151.766 Y23.151 E.01681
G1 X162.343 Y33.728 E.46994
G1 X162.343 Y34.262 E.01678
G1 X151.232 Y23.151 E.49366
G1 X150.698 Y23.151 E.01678
G1 X162.343 Y34.796 E.51739
G1 X162.343 Y35.331 E.01681
G1 X150.163 Y23.151 E.54116
G1 X149.629 Y23.151 E.01678
G1 X162.343 Y35.865 E.56489
G1 X162.343 Y36.399 E.01678
G1 X149.095 Y23.151 E.58861
G1 X148.561 Y23.151 E.01678
G1 X162.343 Y36.934 E.61236
G1 X162.343 Y37.468 E.01678
G1 X148.026 Y23.151 E.63611
G1 X147.492 Y23.151 E.01678
G1 X162.343 Y38.002 E.65983
G1 X162.343 Y38.537 E.01681
G1 X146.958 Y23.151 E.68358
G1 X146.423 Y23.151 E.01681
G1 X162.343 Y39.071 E.70733
G1 X162.343 Y39.605 E.01678
G1 X145.889 Y23.151 E.73106
G1 X145.355 Y23.151 E.01678
G1 X162.343 Y40.14 E.7548
G1 X162.343 Y40.674 E.01678
G1 X144.82 Y23.151 E.77855
G1 X144.286 Y23.151 E.01678
G1 X162.343 Y41.208 E.80228
G1 X162.343 Y41.743 E.01681
G1 X143.752 Y23.151 E.82603
G1 X143.217 Y23.151 E.01681
G1 X162.343 Y42.277 E.84977
G1 X162.343 Y42.811 E.01678
G1 X142.683 Y23.151 E.8735
G1 X142.149 Y23.151 E.01678
G1 X162.343 Y43.346 E.89725
G1 X162.343 Y43.88 E.01678
G1 X141.614 Y23.151 E.921
G1 X141.08 Y23.151 E.01678
M73 P0 R233
M73 Q0 S233
G1 X162.343 Y44.414 E.94472
G1 X162.343 Y44.949 E.01681
G1 X140.546 Y23.151 E.96847
G1 X140.011 Y23.152 E.01681
G1 X162.343 Y45.483 E.99219
G1 X162.343 Y46.018 E.01681
M73 P1 R233
M73 Q1 S233
G1 X139.477 Y23.152 E1.01594
G1 X138.943 Y23.152 E.01678
G1 X162.343 Y46.552 E1.03967
G1 X162.343 Y47.086 E.01678
G1 X138.408 Y23.152 E1.06342
G1 X137.874 Y23.152 E.01678
G1 X162.343 Y47.621 E1.08716
G1 X162.343 Y48.155 E.01678
G1 X137.34 Y23.152 E1.11089
G1 X136.805 Y23.152 E.01681
G1 X162.343 Y48.689 E1.13464
G1 X162.343 Y49.224 E.01681
G1 X136.271 Y23.152 E1.15839
G1 X135.737 Y23.152 E.01678
G1 X162.343 Y49.758 E1.18211
G1 X162.343 Y50.292 E.01678
G1 X135.202 Y23.152 E1.20586
G1 X134.668 Y23.152 E.01678
G1 X162.343 Y50.827 E1.22961
G1 X162.343 Y51.361 E.01678
G1 X134.134 Y23.152 E1.25333
G1 X133.6 Y23.152 E.01678
G1 X162.343 Y51.895 E1.27706
G1 X162.343 Y52.43 E.01681
G1 X133.065 Y23.152 E1.30083
G1 X132.531 Y23.152 E.01678
G1 X162.343 Y52.964 E1.32456
G1 X162.343 Y53.498 E.01678
G1 X131.997 Y23.152 E1.34828
G1 X131.462 Y23.152 E.01681
G1 X162.343 Y54.033 E1.37205
G1 X162.343 Y54.567 E.01678
G1 X130.928 Y23.152 E1.39578
G1 X130.394 Y23.152 E.01678
G1 X162.343 Y55.101 E1.4195
G1 X162.343 Y55.636 E.01681
G1 X129.859 Y23.152 E1.44327
G1 X129.325 Y23.152 E.01678
G1 X162.343 Y56.17 E1.467
G1 X162.343 Y56.704 E.01678
G1 X128.791 Y23.152 E1.49072
G1 X128.256 Y23.152 E.01681
G1 X162.343 Y57.239 E1.51449
G1 X162.343 Y57.773 E.01678
G1 X127.722 Y23.152 E1.53822
G1 X127.188 Y23.152 E.01678
G1 X162.343 Y58.307 E1.56195
G1 X162.343 Y58.842 E.01681
G1 X126.653 Y23.152 E1.58572
G1 X126.119 Y23.152 E.01678
G1 X162.343 Y59.376 E1.60944
G1 X162.343 Y59.91 E.01678
M73 P1 R232
M73 Q1 S232
G1 X125.585 Y23.152 E1.63317
G1 X125.05 Y23.152 E.01681
G1 X162.343 Y60.445 E1.65694
G1 X162.343 Y60.979 E.01678
G1 X124.516 Y23.152 E1.68066
G1 X123.982 Y23.152 E.01678
G1 X162.343 Y61.513 E1.70439
G1 X162.343 Y62.048 E.01681
G1 X123.447 Y23.152 E1.72816
G1 X122.913 Y23.152 E.01678
G1 X162.343 Y62.582 E1.75189
G1 X162.343 Y63.116 E.01678
G1 X122.379 Y23.152 E1.77561
G1 X121.844 Y23.152 E.01681
G1 X162.343 Y63.651 E1.79938
G1 X162.343 Y64.185 E.01678
G1 X121.31 Y23.152 E1.82311
G1 X120.776 Y23.152 E.01678
G1 X162.343 Y64.719 E1.84683
G1 X162.343 Y65.254 E.01681
G1 X120.241 Y23.152 E1.8706
G1 X119.707 Y23.152 E.01678
G1 X162.343 Y65.788 E1.89433
G1 X162.343 Y66.322 E.01678
G1 X119.173 Y23.152 E1.91805
G1 X118.639 Y23.152 E.01678
G1 X162.343 Y66.857 E1.9418
G1 X162.343 Y67.391 E.01678
G1 X118.104 Y23.152 E1.96555
G1 X117.57 Y23.152 E.01678
G1 X162.343 Y67.925 E1.98928
G1 X162.343 Y68.46 E.01681
G1 X117.036 Y23.152 E2.01302
G1 X116.501 Y23.152 E.01681
G1 X162.343 Y68.994 E2.03677
